%
O2031
( TOOLASSEMBLY: )
( id : 1 )
( tool_name : Kugelkopf_d2_TAK )
( tool_assembly_number : 1 )
( Compensation Length: 115.00 )
( Cutter )
(  id | 13 )
(  length | 35.000 )
(  tool_type | TaperMill )
(  diameter | 2.000 )
(  flute_length | 6.000 )
(  shaft_length | 35.000 )
(  shaft_type | CylinderCone )
(  shoulder_base | 21.000 )
(  shoulder_diameter | 6.000 )
(  taper_angle | 6.000 )
(  corner_radius_type | Full )
(  corner_radius | 1.000 )
( Holder )
(  id | 15 )
(  length | 80.000 )
(  holder_type | HSK63 )
( Changed operation name from O2031 to O2031 )
G00 G28 G91 Z0.0000 M09
G90 G49
G90
#10=1500
#11=900
#12=3000
#13=10000
M05
M01
T1 M06 ( Werkzeugwechselaufruf )
H1 D2 ( Laenge und Radius des Werkzeugs anwaehlen )
M56 ( uebernehmen der Daten aus der Makino Datenbank in die Fanuc Datenbank )
S500 M03
M11 M13
G90 G00 A0.0000 C0.0000
G00 X0.0000 Y-300.0000
G17 G54
G00 A-92.8377 C-16.3616
G43 ( aktiviert die Laengenkompensation des Werkzeugs )
G69
M253(M253 standart 5x-simultan / M251 / M252)
G43.4H1
( M8 )
M11 M13
F#13
M119
M09
N120 G01 X12.9362 Y208.2557 Z-18.9651 C-16.3616 A-92.8377 F#13
N130 G01 X12.4542 Y206.6141 Z-18.8803 C-16.3616 A-92.8377 F#13
N140 G01 X12.2133 Y205.7933 Z-18.8379 C-16.3616 A-92.8377 F#13
N150 G01 X11.6506 Y203.8767 Z-18.7388 C-16.3616 A-92.8377 F#11
N160 G01 X11.0878 Y201.9600 Z-18.6398 C-16.3616 A-92.8377 F#11
N170 G01 X10.5251 Y200.0434 Z-18.5408 C-16.3616 A-92.8377 F#11
N180 G01 X9.9624 Y198.1267 Z-18.4418 C-16.3616 A-92.8377 F#11
N190 G01 X9.3997 Y196.2100 Z-18.3428 C-16.3616 A-92.8377 F#11
N200 G01 X9.0898 Y195.7756 Z-18.0024 C-16.3616 A-92.8377 F#10
N210 G01 X9.0396 Y195.7736 Z-17.9158 C-16.3616 A-92.8377 F#10
N220 G01 X8.9447 Y195.7939 Z-17.7411 C-16.6387 A-92.5807 F#10
N230 G01 X8.8213 Y195.8171 Z-17.5443 C-16.9240 A-92.2819 F#10
N240 G01 X8.6584 Y195.8436 Z-17.3135 C-17.2335 A-91.9197 F#10
N250 G01 X8.4195 Y195.8817 Z-16.9808 C-17.6155 A-91.3935 F#10
N260 G01 X8.2949 Y195.9027 Z-16.7776 C-17.8028 A-91.0852 F#10
N270 G01 X8.1809 Y195.9228 Z-16.5720 C-17.9644 A-90.7790 F#10
N280 G01 X7.9576 Y195.9630 Z-16.1397 C-18.2266 A-90.1383 F#10
N290 G01 X7.7152 Y196.0030 Z-15.6691 C-18.4137 A-89.4435 F#10
N300 G01 X7.4653 Y196.0393 Z-15.1927 C-18.5088 A-88.7419 F#10
N310 G01 X7.1957 Y196.0739 Z-14.6891 C-18.5129 A-88.0069 F#10
N320 G01 X6.9034 Y196.1061 Z-14.1548 C-18.3879 A-87.2408 F#10
N330 G01 X6.6366 Y196.1307 Z-13.6765 C-18.1601 A-86.5727 F#10
N340 G01 X6.4031 Y196.1487 Z-13.2652 C-17.8810 A-86.0153 F#10
N350 G01 X6.1875 Y196.1636 Z-12.8914 C-17.5601 A-85.5263 F#10
N360 G01 X5.9737 Y196.1753 Z-12.5264 C-17.1901 A-85.0669 F#10
N370 G01 X5.7557 Y196.1855 Z-12.1599 C-16.7641 A-84.6259 F#10
N380 G01 X5.5014 Y196.1942 Z-11.7401 C-16.2101 A-84.1492 F#10
N390 G01 X5.1809 Y196.2003 Z-11.2223 C-15.4371 A-83.5883 F#10
N400 G01 X4.9409 Y196.2012 Z-10.8431 C-14.8112 A-83.1926 F#10
N410 G01 X4.7072 Y196.1995 Z-10.4809 C-14.1671 A-82.8321 F#10
N420 G01 X4.4645 Y196.1950 Z-10.1114 C-13.4670 A-82.4829 F#10
N430 G01 X4.1418 Y196.1848 Z-9.6314 C-12.4973 A-82.0550 F#10
N440 G01 X3.7467 Y196.1680 Z-9.0602 C-11.2587 A-81.5833 F#10
N450 G01 X3.4568 Y196.1537 Z-8.6531 C-10.3247 A-81.2718 F#10
N460 G01 X3.1730 Y196.1395 Z-8.2646 C-9.3974 A-80.9953 F#10
N470 G01 X2.8842 Y196.1236 Z-7.8792 C-8.4449 A-80.7435 F#10
N480 G01 X2.5765 Y196.1064 Z-7.4799 C-7.4273 A-80.5065 F#10
N490 G01 X2.2233 Y196.0862 Z-7.0362 C-6.2628 A-80.2745 F#10
N500 G01 X1.8550 Y196.0658 Z-6.5905 C-5.0626 A-80.0772 F#10
N510 G01 X1.5347 Y196.0485 Z-6.2172 C-4.0362 A-79.9434 F#10
N520 G01 X1.2534 Y196.0338 Z-5.9000 C-3.1517 A-79.8539 F#10
N530 G01 X0.9859 Y196.0202 Z-5.6079 C-2.3281 A-79.7926 F#10
N540 G01 X0.7179 Y196.0073 Z-5.3244 C-1.5220 A-79.7548 F#10
N550 G01 X0.4408 Y195.9943 Z-5.0410 C-0.7108 A-79.7410 F#10
N560 G01 X0.1258 Y195.9802 Z-4.7302 C0.1827 A-79.7565 F#10
N570 G01 X-0.2229 Y195.9666 Z-4.4006 C1.1334 A-79.8104 F#10
N580 G01 X-0.5557 Y195.9542 Z-4.1004 C2.0003 A-79.9101 F#10
N590 G01 X-0.8571 Y195.9449 Z-3.8402 C2.7505 A-80.0496 F#10
N600 G01 X-1.1323 Y195.9367 Z-3.6120 C3.4057 A-80.2235 F#10
N610 G01 X-1.2754 Y195.9326 Z-3.4973 C3.7344 A-80.3332 F#10
N620 G01 X-1.4007 Y195.9296 Z-3.3988 C4.0159 A-80.4404 F#10
N630 G01 X-1.5361 Y195.9265 Z-3.2944 C4.3134 A-80.5683 F#10
N640 G01 X-1.8628 Y195.9190 Z-3.0483 C5.0047 A-80.9320 F#10
N650 G01 X-2.0241 Y195.9151 Z-2.9241 C5.3373 A-81.1458 F#10
N660 G01 X-2.1895 Y195.9112 Z-2.7879 C5.6785 A-81.3958 F#10
N670 G01 X-2.3464 Y195.9073 Z-2.6407 C6.0110 A-81.6743 F#10
N680 G01 X-2.4878 Y195.9034 Z-2.4897 C6.3209 A-81.9679 F#10
N690 G01 X-2.6113 Y195.9000 Z-2.3616 C6.5803 A-82.2427 F#10
N700 G01 X-2.8046 Y195.8952 Z-2.1904 C6.9456 A-82.6810 F#10
N710 G01 X-2.9803 Y195.8916 Z-2.0664 C7.2507 A-83.1000 F#10
N720 G01 X-3.1543 Y195.8880 Z-1.9673 C7.5425 A-83.5436 F#10
N730 G01 X-3.3163 Y195.8845 Z-1.8845 C7.8123 A-83.9858 F#10
N740 G01 X-3.4617 Y195.8814 Z-1.8161 C8.0538 A-84.4043 F#10
N750 G01 X-3.6040 Y195.8782 Z-1.7534 C8.2895 A-84.8319 F#10
N760 G01 X-3.7439 Y195.8752 Z-1.6947 C8.5209 A-85.2682 F#10
N770 G01 X-3.8693 Y195.8727 Z-1.6456 C8.7272 A-85.6699 F#10
N780 G01 X-3.9878 Y195.8703 Z-1.6150 C8.9162 A-86.0473 F#10
N790 G01 X-4.1037 Y195.8678 Z-1.5998 C9.0976 A-86.4179 F#10
N800 G01 X-4.2189 Y195.8653 Z-1.5988 C9.2775 A-86.7925 F#10
N810 G01 X-4.3282 Y195.8629 Z-1.6108 C9.4494 A-87.1570 F#10
N820 G01 X-4.4271 Y195.8607 Z-1.6332 C9.6083 A-87.4992 F#10
N830 G01 X-4.5343 Y195.8583 Z-1.6711 C9.7861 A-87.8878 F#10
N840 G01 X-4.6327 Y195.8564 Z-1.7199 C9.9576 A-88.2678 F#10
N850 G01 X-4.7225 Y195.8548 Z-1.7775 C10.1232 A-88.6394 F#10
N860 G01 X-4.8073 Y195.8534 Z-1.8441 C10.2895 A-89.0166 F#10
N870 G01 X-4.8865 Y195.8521 Z-1.9189 C10.4555 A-89.3974 F#10
N880 G01 X-4.9567 Y195.8512 Z-2.0003 C10.6175 A-89.7728 F#10
N890 G01 X-5.0170 Y195.8505 Z-2.0856 C10.7728 A-90.1356 F#10
N900 G01 X-5.0706 Y195.8506 Z-2.1779 C10.9288 A-90.5027 F#10
N910 G01 X-5.1153 Y195.8512 Z-2.2763 C11.0838 A-90.8703 F#10
N920 G01 X-5.1497 Y195.8522 Z-2.3763 C11.2322 A-91.2243 F#10
N930 G01 X-5.1745 Y195.8534 Z-2.4788 C11.3766 A-91.5708 F#10
N940 G01 X-5.1900 Y195.8550 Z-2.5848 C11.5196 A-91.9152 F#10
N950 G01 X-5.1958 Y195.8570 Z-2.6927 C11.6596 A-92.2537 F#10
N960 G01 X-5.1914 Y195.8598 Z-2.8017 C11.7963 A-92.5851 F#10
N970 G01 X-5.1763 Y195.8630 Z-2.9111 C11.9299 A-92.9093 F#10
N980 G01 X-5.1503 Y195.8665 Z-3.0202 C12.0602 A-93.2257 F#10
N990 G01 X-5.1123 Y195.8703 Z-3.1315 C12.1909 A-93.5430 F#10
N1000 G01 X-5.0619 Y195.8745 Z-3.2410 C12.3182 A-93.8513 F#10
N1010 G01 X-4.9955 Y195.8800 Z-3.3483 C12.4443 A-94.1550 F#10
N1020 G01 X-4.9067 Y195.8861 Z-3.4579 C12.5756 A-94.4691 F#10
N1030 G01 X-4.8123 Y195.8923 Z-3.5661 C12.7012 A-94.7687 F#10
N1040 G01 X-4.7042 Y195.8991 Z-3.6822 C12.8328 A-95.0860 F#10
N1050 G01 X-4.6225 Y195.9038 Z-3.7605 C12.9222 A-95.3038 F#10
N1060 G01 X-4.5295 Y195.9092 Z-3.8409 C13.0150 A-95.5324 F#10
N1070 G01 X-4.4171 Y195.9156 Z-3.9274 C13.1166 A-95.7860 F#10
N1080 G01 X-4.2843 Y195.9229 Z-4.0243 C13.2277 A-96.0681 F#10
N1090 G01 X-3.9282 Y195.9435 Z-4.3308 C13.5047 A-96.8044 F#10
N1100 G01 X-3.5749 Y195.9648 Z-4.6573 C13.7284 A-97.4585 F#10
N1110 G01 X-3.1312 Y195.9912 Z-5.0731 C13.9263 A-98.1531 F#10
N1120 G01 X-2.6746 Y196.0172 Z-5.5116 C14.0354 A-98.7378 F#10
N1130 G01 X-2.1776 Y196.0443 Z-6.0030 C14.0436 A-99.2409 F#10
N1140 G01 X-1.6905 Y196.0694 Z-6.5014 C13.9430 A-99.6237 F#10
N1150 G01 X-1.1942 Y196.0934 Z-7.0272 C13.7282 A-99.9224 F#10
N1160 G01 X-0.6400 Y196.1178 Z-7.6366 C13.3513 A-100.1760 F#10
N1170 G01 X-0.0706 Y196.1384 Z-8.2874 C12.8123 A-100.3779 F#10
N1180 G01 X0.3455 Y196.1508 Z-8.7800 C12.3221 A-100.4688 F#10
N1190 G01 X0.6629 Y196.1584 Z-9.1658 C11.8934 A-100.5182 F#10
N1200 G01 X0.9605 Y196.1631 Z-9.5356 C11.4472 A-100.5547 F#10
N1210 G01 X1.2587 Y196.1656 Z-9.9137 C10.9569 A-100.5807 F#10
N1220 G01 X1.6501 Y196.1640 Z-10.4216 C10.2492 A-100.5977 F#10
N1230 G01 X2.0154 Y196.1573 Z-10.9078 C9.5221 A-100.5943 F#10
N1240 G01 X2.3121 Y196.1486 Z-11.3114 C8.8868 A-100.5764 F#10
N1250 G01 X2.6014 Y196.1365 Z-11.7125 C8.2289 A-100.5449 F#10
N1260 G01 X2.9104 Y196.1210 Z-12.1502 C7.4829 A-100.4944 F#10
N1270 G01 X3.2869 Y196.0982 Z-12.6956 C6.5159 A-100.4078 F#10
N1280 G01 X3.6705 Y196.0709 Z-13.2668 C5.4613 A-100.2878 F#10
N1290 G01 X3.9905 Y196.0440 Z-13.7552 C4.5301 A-100.1615 F#10
N1300 G01 X4.2803 Y196.0170 Z-14.2063 C3.6489 A-100.0249 F#10
N1310 G01 X4.5591 Y195.9887 Z-14.6499 C2.7655 A-99.8713 F#10
N1320 G01 X4.8304 Y195.9576 Z-15.0891 C1.8744 A-99.7001 F#10
N1330 G01 X5.1009 Y195.9240 Z-15.5359 C0.9516 A-99.5067 F#10
N1340 G01 X5.3649 Y195.8890 Z-15.9812 C0.0152 A-99.2938 F#10
N1350 G01 X5.6284 Y195.8500 Z-16.4353 C-0.9563 A-99.0561 F#10
N1360 G01 X5.9095 Y195.8055 Z-16.9310 C-2.0362 A-98.7722 F#10
N1370 G01 X6.2055 Y195.7551 Z-17.4648 C-3.2220 A-98.4377 F#10
N1380 G01 X6.4017 Y195.7191 Z-17.8269 C-4.0394 A-98.1936 F#10
N1390 G01 X6.5599 Y195.6888 Z-18.1242 C-4.7181 A-97.9828 F#10
N1400 G01 X6.7103 Y195.6577 Z-18.4184 C-5.3929 A-97.7661 F#10
N1410 G01 X6.8448 Y195.6254 Z-18.7289 C-6.0919 A-97.5343 F#10
N1420 G01 X6.9234 Y195.6014 Z-18.9534 C-6.5967 A-97.3637 F#10
N1430 G01 X6.9965 Y195.5837 Z-19.1141 C-6.9923 A-97.2300 F#10
N1440 G01 X7.0671 Y195.5709 Z-19.2238 C-7.2960 A-97.1270 F#10
N1450 G01 X7.1364 Y195.5599 Z-19.3146 C-7.5688 A-97.0342 F#10
N1460 G01 X7.2189 Y195.5480 Z-19.4086 C-7.8748 A-96.9295 F#10
N1470 G01 X7.3014 Y195.5376 Z-19.4861 C-8.1574 A-96.8322 F#10
N1480 G01 X7.3872 Y195.5280 Z-19.5527 C-8.4338 A-96.7363 F#10
N1490 G01 X7.4874 Y195.5182 Z-19.6163 C-8.7405 A-96.6290 F#10
N1500 G01 X7.5825 Y195.5102 Z-19.6644 C-9.0196 A-96.5304 F#10
N1510 G01 X7.6737 Y195.5034 Z-19.7011 C-9.2800 A-96.4376 F#10
N1520 G01 X7.7781 Y195.4965 Z-19.7330 C-9.5719 A-96.3323 F#10
N1530 G01 X7.8890 Y195.4903 Z-19.7560 C-9.8770 A-96.2211 F#10
N1540 G01 X7.9934 Y195.4855 Z-19.7681 C-10.1617 A-96.1158 F#10
N1550 G01 X8.0897 Y195.4817 Z-19.7711 C-10.4237 A-96.0177 F#10
N1560 G01 X8.1855 Y195.4788 Z-19.7666 C-10.6848 A-95.9186 F#10
N1570 G01 X8.2902 Y195.4764 Z-19.7527 C-10.9722 A-95.8079 F#10
N1580 G01 X8.3925 Y195.4751 Z-19.7298 C-11.2573 A-95.6963 F#10
N1590 G01 X8.4885 Y195.4747 Z-19.6994 C-11.5299 A-95.5878 F#10
N1600 G01 X8.5860 Y195.4752 Z-19.6591 C-11.8142 A-95.4725 F#10
N1610 G01 X8.6747 Y195.4767 Z-19.6131 C-12.0814 A-95.3621 F#10
N1620 G01 X8.7869 Y195.4800 Z-19.5406 C-12.4354 A-95.2125 F#10
N1630 G01 X8.8687 Y195.4837 Z-19.4756 C-12.7087 A-95.0941 F#10
N1640 G01 X8.9479 Y195.4885 Z-19.4005 C-12.9903 A-94.9691 F#10
N1650 G01 X9.0188 Y195.4938 Z-19.3201 C-13.2622 A-94.8453 F#10
N1660 G01 X9.0884 Y195.5007 Z-19.2252 C-13.5555 A-94.7080 F#10
N1670 G01 X9.1439 Y195.5079 Z-19.1329 C-13.8182 A-94.5814 F#10
N1680 G01 X9.1900 Y195.5156 Z-19.0399 C-14.0659 A-94.4584 F#10
N1690 G01 X9.2275 Y195.5243 Z-18.9410 C-14.3121 A-94.3323 F#10
N1700 G01 X9.2536 Y195.5336 Z-18.8408 C-14.5469 A-94.2081 F#10
N1710 G01 X9.2687 Y195.5439 Z-18.7363 C-14.7793 A-94.0807 F#10
N1720 G01 X9.2724 Y195.5541 Z-18.6300 C-15.0057 A-93.9521 F#10
N1730 G01 X9.2635 Y195.5654 Z-18.5197 C-15.2330 A-93.8174 F#10
N1740 G01 X9.2413 Y195.5774 Z-18.4082 C-15.4571 A-93.6787 F#10
N1750 G01 X9.2051 Y195.5901 Z-18.2964 C-15.6785 A-93.5346 F#10
N1760 G01 X9.1528 Y195.6039 Z-18.1820 C-15.9034 A-93.3799 F#10
N1770 G01 X9.0956 Y195.6181 Z-18.0625 C-16.1261 A-93.2158 F#10
N1780 G01 X9.0215 Y195.6353 Z-17.9111 C-16.3900 A-93.0055 F#10
N1790 G01 X8.9270 Y195.6555 Z-17.7362 C-16.6685 A-92.7549 F#10
N1800 G01 X8.8040 Y195.6789 Z-17.5393 C-16.9546 A-92.4598 F#10
N1810 G01 X8.6414 Y195.7060 Z-17.3084 C-17.2649 A-92.0976 F#10
N1820 G01 X8.4027 Y195.7439 Z-16.9758 C-17.6476 A-91.5664 F#10
N1830 G01 X8.2785 Y195.7657 Z-16.7726 C-17.8350 A-91.2542 F#10
N1840 G01 X8.1648 Y195.7856 Z-16.5670 C-17.9967 A-90.9446 F#10
N1850 G01 X7.9445 Y195.8260 Z-16.1379 C-18.2572 A-90.3061 F#10
N1860 G01 X7.7032 Y195.8659 Z-15.6669 C-18.4469 A-89.6072 F#10
N1870 G01 X7.4543 Y195.9027 Z-15.1902 C-18.5429 A-88.9018 F#10
N1880 G01 X7.1855 Y195.9378 Z-14.6864 C-18.5465 A-88.1634 F#10
N1890 G01 X6.8941 Y195.9703 Z-14.1518 C-18.4195 A-87.3945 F#10
N1900 G01 X6.6283 Y195.9945 Z-13.6731 C-18.1888 A-86.7244 F#10
N1910 G01 X6.3955 Y196.0128 Z-13.2615 C-17.9070 A-86.1655 F#10
N1920 G01 X6.1806 Y196.0274 Z-12.8874 C-17.5836 A-85.6752 F#10
N1930 G01 X5.9677 Y196.0392 Z-12.5219 C-17.2111 A-85.2147 F#10
N1940 G01 X5.7506 Y196.0495 Z-12.1550 C-16.7824 A-84.7729 F#10
N1950 G01 X5.4972 Y196.0577 Z-11.7348 C-16.2248 A-84.2953 F#10
N1960 G01 X5.1778 Y196.0635 Z-11.2165 C-15.4465 A-83.7336 F#10
N1970 G01 X4.9387 Y196.0644 Z-10.8368 C-14.8164 A-83.3372 F#10
N1980 G01 X4.7059 Y196.0625 Z-10.4742 C-14.1681 A-82.9758 F#10
N1990 G01 X4.4639 Y196.0575 Z-10.1043 C-13.4637 A-82.6259 F#10
N2000 G01 X4.1424 Y196.0466 Z-9.6237 C-12.4885 A-82.1967 F#10
N2010 G01 X3.7484 Y196.0292 Z-9.0519 C-11.2442 A-81.7233 F#10
N2020 G01 X3.4593 Y196.0147 Z-8.6444 C-10.3072 A-81.4105 F#10
N2030 G01 X3.1765 Y195.9997 Z-8.2553 C-9.3780 A-81.1327 F#10
N2040 G01 X2.8886 Y195.9837 Z-7.8694 C-8.4250 A-80.8793 F#10
N2050 G01 X2.5817 Y195.9656 Z-7.4696 C-7.4084 A-80.6408 F#10
N2060 G01 X2.2295 Y195.9449 Z-7.0251 C-6.2465 A-80.4070 F#10
N2070 G01 X1.8622 Y195.9241 Z-6.5787 C-5.0499 A-80.2080 F#10
N2080 G01 X1.5429 Y195.9063 Z-6.2046 C-4.0273 A-80.0724 F#10
N2090 G01 X1.2622 Y195.8911 Z-5.8870 C-3.1464 A-79.9814 F#10
N2100 G01 X0.9953 Y195.8771 Z-5.5943 C-2.3266 A-79.9191 F#10
N2110 G01 X0.7279 Y195.8636 Z-5.3103 C-1.5245 A-79.8803 F#10
N2120 G01 X0.4514 Y195.8505 Z-5.0262 C-0.7176 A-79.8655 F#10
N2130 G01 X0.1370 Y195.8361 Z-4.7149 C0.1710 A-79.8798 F#10
N2140 G01 X-0.2111 Y195.8219 Z-4.3847 C1.1161 A-79.9322 F#10
N2150 G01 X-0.5434 Y195.8095 Z-4.0839 C1.9776 A-80.0302 F#10
N2160 G01 X-0.8445 Y195.7995 Z-3.8233 C2.7228 A-80.1677 F#10
N2170 G01 X-1.1194 Y195.7914 Z-3.5948 C3.3737 A-80.3392 F#10
N2180 G01 X-1.2622 Y195.7873 Z-3.4798 C3.7001 A-80.4474 F#10
N2190 G01 X-1.3874 Y195.7838 Z-3.3812 C3.9798 A-80.5532 F#10
N2200 G01 X-1.5227 Y195.7806 Z-3.2766 C4.2752 A-80.6794 F#10
N2210 G01 X-1.8492 Y195.7732 Z-3.0299 C4.9625 A-81.0391 F#10
N2220 G01 X-2.0104 Y195.7693 Z-2.9058 C5.2932 A-81.2502 F#10
N2230 G01 X-2.1757 Y195.7650 Z-2.7697 C5.6326 A-81.4972 F#10
N2240 G01 X-2.3328 Y195.7612 Z-2.6228 C5.9634 A-81.7723 F#10
N2250 G01 X-2.4739 Y195.7574 Z-2.4717 C6.2719 A-82.0625 F#10
N2260 G01 X-2.5971 Y195.7539 Z-2.3435 C6.5303 A-82.3340 F#10
N2270 G01 X-2.7897 Y195.7489 Z-2.1717 C6.8945 A-82.7671 F#10
N2280 G01 X-2.9650 Y195.7453 Z-2.0472 C7.1988 A-83.1812 F#10
N2290 G01 X-3.1386 Y195.7418 Z-1.9477 C7.4897 A-83.6193 F#10
N2300 G01 X-3.3006 Y195.7384 Z-1.8647 C7.7586 A-84.0556 F#10
N2310 G01 X-3.4463 Y195.7353 Z-1.7960 C8.0007 A-84.4703 F#10
N2320 G01 X-3.5889 Y195.7322 Z-1.7331 C8.2370 A-84.8934 F#10
N2330 G01 X-3.7291 Y195.7291 Z-1.6741 C8.4694 A-85.3250 F#10
N2340 G01 X-3.8548 Y195.7264 Z-1.6246 C8.6770 A-85.7223 F#10
N2350 G01 X-3.9736 Y195.7240 Z-1.5935 C8.8676 A-86.0957 F#10
N2360 G01 X-4.0897 Y195.7216 Z-1.5782 C9.0508 A-86.4623 F#10
N2370 G01 X-4.2053 Y195.7191 Z-1.5770 C9.2327 A-86.8331 F#10
N2380 G01 X-4.3148 Y195.7167 Z-1.5891 C9.4068 A-87.1938 F#10
N2390 G01 X-4.4141 Y195.7145 Z-1.6116 C9.5680 A-87.5327 F#10
N2400 G01 X-4.5215 Y195.7123 Z-1.6494 C9.7485 A-87.9176 F#10
N2410 G01 X-4.6204 Y195.7105 Z-1.6982 C9.9229 A-88.2942 F#10
N2420 G01 X-4.7103 Y195.7088 Z-1.7561 C10.0915 A-88.6626 F#10
N2430 G01 X-4.7956 Y195.7074 Z-1.8226 C10.2609 A-89.0368 F#10
N2440 G01 X-4.8751 Y195.7061 Z-1.8975 C10.4303 A-89.4149 F#10
N2450 G01 X-4.9458 Y195.7051 Z-1.9790 C10.5958 A-89.7878 F#10
N2460 G01 X-5.0065 Y195.7045 Z-2.0644 C10.7546 A-90.1485 F#10
N2470 G01 X-5.0603 Y195.7048 Z-2.1569 C10.9143 A-90.5138 F#10
N2480 G01 X-5.1053 Y195.7054 Z-2.2556 C11.0731 A-90.8799 F#10
N2490 G01 X-5.1400 Y195.7064 Z-2.3558 C11.2254 A-91.2329 F#10
N2500 G01 X-5.1649 Y195.7076 Z-2.4585 C11.3738 A-91.5788 F#10
N2510 G01 X-5.1807 Y195.7092 Z-2.5649 C11.5207 A-91.9231 F#10
N2520 G01 X-5.1866 Y195.7115 Z-2.6731 C11.6649 A-92.2619 F#10
N2530 G01 X-5.1820 Y195.7144 Z-2.7824 C11.8057 A-92.5942 F#10
N2540 G01 X-5.1668 Y195.7176 Z-2.8921 C11.9435 A-92.9199 F#10
N2550 G01 X-5.1409 Y195.7210 Z-3.0015 C12.0780 A-93.2386 F#10
N2560 G01 X-5.1029 Y195.7249 Z-3.1132 C12.2132 A-93.5589 F#10
N2570 G01 X-5.0523 Y195.7297 Z-3.2230 C12.3451 A-93.8710 F#10
N2580 G01 X-4.9862 Y195.7352 Z-3.3308 C12.4758 A-94.1796 F#10
N2590 G01 X-4.8977 Y195.7413 Z-3.4411 C12.6122 A-94.5003 F#10
N2600 G01 X-4.8030 Y195.7474 Z-3.5496 C12.7427 A-94.8070 F#10
N2610 G01 X-4.6947 Y195.7542 Z-3.6659 C12.8789 A-95.1313 F#10
N2620 G01 X-4.6131 Y195.7594 Z-3.7442 C12.9704 A-95.3520 F#10
N2630 G01 X-4.5201 Y195.7651 Z-3.8244 C13.0651 A-95.5832 F#10
N2640 G01 X-4.4079 Y195.7715 Z-3.9110 C13.1682 A-95.8389 F#10
N2650 G01 X-4.2755 Y195.7788 Z-4.0082 C13.2800 A-96.1217 F#10
N2660 G01 X-3.9201 Y195.7993 Z-4.3151 C13.5538 A-96.8531 F#10
N2670 G01 X-3.5679 Y195.8213 Z-4.6422 C13.7682 A-97.4945 F#10
N2680 G01 X-3.1256 Y195.8477 Z-5.0590 C13.9483 A-98.1656 F#10
N2690 G01 X-2.6705 Y195.8743 Z-5.4985 C14.0353 A-98.7218 F#10
N2700 G01 X-2.1751 Y195.9019 Z-5.9909 C14.0197 A-99.1953 F#10
N2710 G01 X-1.6899 Y195.9273 Z-6.4905 C13.9007 A-99.5570 F#10
N2720 G01 X-1.1950 Y195.9517 Z-7.0170 C13.6775 A-99.8493 F#10
N2730 G01 X-0.6424 Y195.9775 Z-7.6270 C13.2987 A-100.1054 F#10
N2740 G01 X-0.0746 Y195.9986 Z-8.2782 C12.7590 A-100.3116 F#10
N2750 G01 X0.3403 Y196.0114 Z-8.7712 C12.2677 A-100.4065 F#10
N2760 G01 X0.6569 Y196.0196 Z-9.1572 C11.8379 A-100.4595 F#10
N2770 G01 X0.9537 Y196.0248 Z-9.5271 C11.3906 A-100.4997 F#10
N2780 G01 X1.2510 Y196.0274 Z-9.9054 C10.8990 A-100.5297 F#10
N2790 G01 X1.6412 Y196.0263 Z-10.4135 C10.1894 A-100.5526 F#10
N2800 G01 X2.0054 Y196.0199 Z-10.8999 C9.4604 A-100.5550 F#10
N2810 G01 X2.3011 Y196.0114 Z-11.3038 C8.8232 A-100.5421 F#10
N2820 G01 X2.5895 Y196.0001 Z-11.7050 C8.1636 A-100.5157 F#10
N2830 G01 X2.8975 Y195.9844 Z-12.1429 C7.4157 A-100.4708 F#10
N2840 G01 X3.2727 Y195.9616 Z-12.6884 C6.4462 A-100.3914 F#10
N2850 G01 X3.6548 Y195.9341 Z-13.2599 C5.3893 A-100.2790 F#10
N2860 G01 X3.9742 Y195.9080 Z-13.7482 C4.4563 A-100.1591 F#10
N2870 G01 X4.2626 Y195.8810 Z-14.1996 C3.5735 A-100.0284 F#10
N2880 G01 X4.5403 Y195.8519 Z-14.6434 C2.6886 A-99.8805 F#10
N2890 G01 X4.8105 Y195.8214 Z-15.0829 C1.7964 A-99.7150 F#10
N2900 G01 X5.0795 Y195.7876 Z-15.5301 C0.8727 A-99.5271 F#10
N2910 G01 X5.3421 Y195.7516 Z-15.9756 C-0.0642 A-99.3195 F#10
N2920 G01 X5.6049 Y195.7131 Z-16.4297 C-1.0359 A-99.0871 F#10
N2930 G01 X5.8849 Y195.6684 Z-16.9256 C-2.1154 A-98.8087 F#10
N2940 G01 X6.1794 Y195.6170 Z-17.4595 C-3.3000 A-98.4796 F#10
N2950 G01 X6.3743 Y195.5808 Z-17.8220 C-4.1162 A-98.2390 F#10
N2960 G01 X6.5315 Y195.5500 Z-18.1195 C-4.7943 A-98.0309 F#10
N2970 G01 X6.6808 Y195.5191 Z-18.4140 C-5.4713 A-97.8164 F#10
N2980 G01 X6.8145 Y195.4857 Z-18.7245 C-6.1754 A-97.5863 F#10
N2990 G01 X6.8927 Y195.4622 Z-18.9490 C-6.6852 A-97.4167 F#10
N3000 G01 X6.9649 Y195.4442 Z-19.1102 C-7.0864 A-97.2835 F#10
N3010 G01 X7.0349 Y195.4309 Z-19.2208 C-7.3962 A-97.1806 F#10
N3020 G01 X7.1041 Y195.4195 Z-19.3123 C-7.6749 A-97.0876 F#10
N3030 G01 X7.1866 Y195.4074 Z-19.4071 C-7.9878 A-96.9829 F#10
N3040 G01 X7.2690 Y195.3969 Z-19.4853 C-8.2770 A-96.8854 F#10
N3050 G01 X7.3549 Y195.3873 Z-19.5526 C-8.5600 A-96.7894 F#10
N3060 G01 X7.4553 Y195.3775 Z-19.6168 C-8.8742 A-96.6819 F#10
N3070 G01 X7.5505 Y195.3694 Z-19.6654 C-9.1603 A-96.5831 F#10
N3080 G01 X7.6420 Y195.3626 Z-19.7026 C-9.4272 A-96.4900 F#10
N3090 G01 X7.7467 Y195.3557 Z-19.7349 C-9.7265 A-96.3845 F#10
N3100 G01 X7.8580 Y195.3494 Z-19.7583 C-10.0391 A-96.2729 F#10
N3110 G01 X7.9628 Y195.3445 Z-19.7706 C-10.3310 A-96.1673 F#10
N3120 G01 X8.0595 Y195.3407 Z-19.7738 C-10.5994 A-96.0689 F#10
N3130 G01 X8.1557 Y195.3378 Z-19.7694 C-10.8668 A-95.9695 F#10
N3140 G01 X8.2607 Y195.3356 Z-19.7555 C-11.1610 A-95.8585 F#10
N3150 G01 X8.3635 Y195.3343 Z-19.7326 C-11.4527 A-95.7465 F#10
N3160 G01 X8.4599 Y195.3340 Z-19.7021 C-11.7315 A-95.6376 F#10
N3170 G01 X8.5578 Y195.3346 Z-19.6617 C-12.0219 A-95.5219 F#10
N3180 G01 X8.6469 Y195.3360 Z-19.6156 C-12.2945 A-95.4111 F#10
N3190 G01 X8.7596 Y195.3394 Z-19.5427 C-12.6554 A-95.2609 F#10
N3200 G01 X8.8418 Y195.3431 Z-19.4775 C-12.9335 A-95.1421 F#10
N3210 G01 X8.9214 Y195.3480 Z-19.4021 C-13.2197 A-95.0166 F#10
N3220 G01 X8.9925 Y195.3538 Z-19.3214 C-13.4956 A-94.8924 F#10
N3230 G01 X9.0625 Y195.3611 Z-19.2260 C-13.7926 A-94.7546 F#10
N3240 G01 X9.1182 Y195.3688 Z-19.1333 C-14.0580 A-94.6275 F#10
N3250 G01 X9.1641 Y195.3769 Z-19.0396 C-14.3076 A-94.5041 F#10
N3260 G01 X9.2026 Y195.3854 Z-18.9406 C-14.5551 A-94.3775 F#10
N3270 G01 X9.2293 Y195.3945 Z-18.8400 C-14.7905 A-94.2529 F#10
N3280 G01 X9.2453 Y195.4046 Z-18.7351 C-15.0227 A-94.1251 F#10
N3290 G01 X9.2495 Y195.4154 Z-18.6285 C-15.2482 A-93.9960 F#10
N3300 G01 X9.2413 Y195.4272 Z-18.5176 C-15.4736 A-93.8610 F#10
N3310 G01 X9.2199 Y195.4397 Z-18.4055 C-15.6950 A-93.7218 F#10
N3320 G01 X9.1840 Y195.4522 Z-18.2930 C-15.9134 A-93.5773 F#10
N3330 G01 X9.1320 Y195.4657 Z-18.1778 C-16.1345 A-93.4221 F#10
N3340 G01 X9.0749 Y195.4799 Z-18.0576 C-16.3542 A-93.2564 F#10
N3350 G01 X9.0011 Y195.4979 Z-17.9060 C-16.6109 A-93.0474 F#10
N3360 G01 X8.9067 Y195.5186 Z-17.7313 C-16.8820 A-92.7974 F#10
N3370 G01 X8.7837 Y195.5415 Z-17.5345 C-17.1593 A-92.5030 F#10
N3380 G01 X8.6216 Y195.5689 Z-17.3037 C-17.4577 A-92.1420 F#10
N3390 G01 X8.3836 Y195.6072 Z-16.9710 C-17.8213 A-91.6127 F#10
N3400 G01 X8.2603 Y195.6285 Z-16.7675 C-17.9967 A-91.3018 F#10
N3410 G01 X8.1476 Y195.6494 Z-16.5616 C-18.1460 A-90.9937 F#10
N3420 G01 X7.9254 Y195.6896 Z-16.1266 C-18.3830 A-90.3507 F#10
N3430 G01 X7.6854 Y195.7300 Z-15.6556 C-18.5416 A-89.6570 F#10
N3440 G01 X7.4377 Y195.7673 Z-15.1790 C-18.6070 A-88.9581 F#10
N3450 G01 X7.1701 Y195.8016 Z-14.6750 C-18.5811 A-88.2281 F#10
N3460 G01 X6.8806 Y195.8334 Z-14.1400 C-18.4287 A-87.4690 F#10
N3470 G01 X6.6161 Y195.8579 Z-13.6610 C-18.1794 A-86.8065 F#10
N3480 G01 X6.3846 Y195.8764 Z-13.2492 C-17.8857 A-86.2525 F#10
N3490 G01 X6.1707 Y195.8902 Z-12.8748 C-17.5550 A-85.7654 F#10
N3500 G01 X5.9586 Y195.9024 Z-12.5093 C-17.1761 A-85.3075 F#10
N3510 G01 X5.7422 Y195.9119 Z-12.1423 C-16.7414 A-84.8681 F#10
N3520 G01 X5.4899 Y195.9199 Z-11.7218 C-16.1773 A-84.3933 F#10
N3530 G01 X5.1718 Y195.9254 Z-11.2033 C-15.3923 A-83.8344 F#10
N3540 G01 X4.9335 Y195.9262 Z-10.8235 C-14.7580 A-83.4399 F#10
N3550 G01 X4.7017 Y195.9240 Z-10.4606 C-14.1063 A-83.0806 F#10
N3560 G01 X4.4607 Y195.9182 Z-10.0905 C-13.3995 A-82.7324 F#10
N3570 G01 X4.1403 Y195.9069 Z-9.6096 C-12.4223 A-82.3055 F#10
N3580 G01 X3.7477 Y195.8890 Z-9.0374 C-11.1781 A-81.8346 F#10
N3590 G01 X3.4599 Y195.8742 Z-8.6294 C-10.2428 A-81.5236 F#10
N3600 G01 X3.1779 Y195.8585 Z-8.2401 C-9.3167 A-81.2474 F#10
N3610 G01 X2.8908 Y195.8424 Z-7.8538 C-8.3683 A-80.9956 F#10
N3620 G01 X2.5848 Y195.8236 Z-7.4538 C-7.3582 A-80.7588 F#10
N3630 G01 X2.2334 Y195.8025 Z-7.0090 C-6.2050 A-80.5266 F#10
N3640 G01 X1.8670 Y195.7812 Z-6.5623 C-5.0173 A-80.3291 F#10
N3650 G01 X1.5482 Y195.7630 Z-6.1881 C-4.0024 A-80.1945 F#10
N3660 G01 X1.2683 Y195.7474 Z-5.8701 C-3.1283 A-80.1040 F#10
N3670 G01 X1.0021 Y195.7331 Z-5.5771 C-2.3147 A-80.0419 F#10
N3680 G01 X0.7354 Y195.7193 Z-5.2927 C-1.5186 A-80.0031 F#10
N3690 G01 X0.4596 Y195.7059 Z-5.0083 C-0.7178 A-79.9881 F#10
N3700 G01 X0.1459 Y195.6913 Z-4.6965 C0.1641 A-80.0019 F#10
N3710 G01 X-0.2014 Y195.6768 Z-4.3659 C1.1023 A-80.0535 F#10
N3720 G01 X-0.5330 Y195.6642 Z-4.0647 C1.9576 A-80.1502 F#10
N3730 G01 X-0.8334 Y195.6540 Z-3.8037 C2.6975 A-80.2861 F#10
N3740 G01 X-1.1078 Y195.6458 Z-3.5749 C3.3439 A-80.4557 F#10
N3750 G01 X-1.2504 Y195.6417 Z-3.4599 C3.6682 A-80.5626 F#10
N3760 G01 X-1.3754 Y195.6381 Z-3.3610 C3.9460 A-80.6672 F#10
N3770 G01 X-1.5104 Y195.6348 Z-3.2563 C4.2394 A-80.7920 F#10
N3780 G01 X-1.8353 Y195.6273 Z-3.0103 C4.9203 A-81.1461 F#10
N3790 G01 X-1.9963 Y195.6234 Z-2.8860 C5.2491 A-81.3547 F#10
N3800 G01 X-2.1615 Y195.6190 Z-2.7498 C5.5866 A-81.5987 F#10
N3810 G01 X-2.3185 Y195.6151 Z-2.6030 C5.9157 A-81.8703 F#10
N3820 G01 X-2.4593 Y195.6112 Z-2.4519 C6.2229 A-82.1570 F#10
N3830 G01 X-2.5822 Y195.6078 Z-2.3234 C6.4803 A-82.4253 F#10
N3840 G01 X-2.7742 Y195.6027 Z-2.1512 C6.8434 A-82.8533 F#10
N3850 G01 X-2.9491 Y195.5991 Z-2.0263 C7.1469 A-83.2624 F#10
N3860 G01 X-3.1224 Y195.5956 Z-1.9265 C7.4369 A-83.6950 F#10
N3870 G01 X-3.2843 Y195.5922 Z-1.8433 C7.7048 A-84.1255 F#10
N3880 G01 X-3.4304 Y195.5891 Z-1.7742 C7.9476 A-84.5362 F#10
N3890 G01 X-3.5733 Y195.5860 Z-1.7110 C8.1846 A-84.9549 F#10
N3900 G01 X-3.7139 Y195.5829 Z-1.6518 C8.4179 A-85.3818 F#10
N3910 G01 X-3.8398 Y195.5802 Z-1.6018 C8.6269 A-85.7747 F#10
N3920 G01 X-3.9589 Y195.5779 Z-1.5706 C8.8189 A-86.1441 F#10
N3930 G01 X-4.0753 Y195.5755 Z-1.5551 C9.0040 A-86.5068 F#10
N3940 G01 X-4.1912 Y195.5730 Z-1.5539 C9.1879 A-86.8736 F#10
N3950 G01 X-4.3010 Y195.5706 Z-1.5660 C9.3642 A-87.2307 F#10
N3960 G01 X-4.4006 Y195.5683 Z-1.5885 C9.5276 A-87.5662 F#10
N3970 G01 X-4.5083 Y195.5662 Z-1.6266 C9.7109 A-87.9474 F#10
N3980 G01 X-4.6076 Y195.5644 Z-1.6753 C9.8882 A-88.3206 F#10
N3990 G01 X-4.6982 Y195.5627 Z-1.7329 C10.0597 A-88.6859 F#10
N4000 G01 X-4.7839 Y195.5613 Z-1.7995 C10.2323 A-89.0571 F#10
N4010 G01 X-4.8638 Y195.5601 Z-1.8744 C10.4051 A-89.4324 F#10
N4020 G01 X-4.9348 Y195.5591 Z-1.9560 C10.5741 A-89.8028 F#10
N4030 G01 X-4.9959 Y195.5585 Z-2.0416 C10.7364 A-90.1614 F#10
N4040 G01 X-5.0500 Y195.5588 Z-2.1343 C10.8997 A-90.5249 F#10
N4050 G01 X-5.0953 Y195.5595 Z-2.2332 C11.0625 A-90.8896 F#10
N4060 G01 X-5.1302 Y195.5605 Z-2.3337 C11.2186 A-91.2415 F#10
N4070 G01 X-5.1553 Y195.5619 Z-2.4367 C11.3709 A-91.5868 F#10
N4080 G01 X-5.1712 Y195.5636 Z-2.5433 C11.5219 A-91.9310 F#10
N4090 G01 X-5.1772 Y195.5659 Z-2.6519 C11.6701 A-92.2702 F#10
N4100 G01 X-5.1727 Y195.5689 Z-2.7615 C11.8151 A-92.6034 F#10
N4110 G01 X-5.1576 Y195.5722 Z-2.8716 C11.9571 A-92.9306 F#10
N4120 G01 X-5.1319 Y195.5757 Z-2.9813 C12.0959 A-93.2514 F#10
N4130 G01 X-5.0938 Y195.5797 Z-3.0934 C12.2356 A-93.5747 F#10
N4140 G01 X-5.0432 Y195.5846 Z-3.2035 C12.3720 A-93.8906 F#10
N4150 G01 X-4.9772 Y195.5901 Z-3.3118 C12.5073 A-94.2041 F#10
N4160 G01 X-4.8886 Y195.5964 Z-3.4225 C12.6488 A-94.5314 F#10
N4170 G01 X-4.7938 Y195.6026 Z-3.5314 C12.7841 A-94.8452 F#10
N4180 G01 X-4.6853 Y195.6095 Z-3.6479 C12.9250 A-95.1766 F#10
N4190 G01 X-4.6037 Y195.6148 Z-3.7262 C13.0186 A-95.4001 F#10
N4200 G01 X-4.5108 Y195.6206 Z-3.8064 C13.1153 A-95.6340 F#10
N4210 G01 X-4.3989 Y195.6271 Z-3.8930 C13.2198 A-95.8917 F#10
N4220 G01 X-4.2666 Y195.6344 Z-3.9904 C13.3323 A-96.1753 F#10
N4230 G01 X-3.9126 Y195.6553 Z-4.2982 C13.6029 A-96.9018 F#10
N4240 G01 X-3.5615 Y195.6775 Z-4.6261 C13.8080 A-97.5305 F#10
N4250 G01 X-3.1206 Y195.7042 Z-5.0438 C13.9704 A-98.1781 F#10
N4260 G01 X-2.6670 Y195.7312 Z-5.4843 C14.0352 A-98.7058 F#10
N4270 G01 X-2.1732 Y195.7593 Z-5.9778 C13.9958 A-99.1497 F#10
N4280 G01 X-1.6897 Y195.7852 Z-6.4784 C13.8585 A-99.4903 F#10
N4290 G01 X-1.1963 Y195.8102 Z-7.0056 C13.6269 A-99.7761 F#10
N4300 G01 X-0.6453 Y195.8366 Z-7.6162 C13.2460 A-100.0347 F#10
N4310 G01 X-0.0790 Y195.8588 Z-8.2679 C12.7056 A-100.2453 F#10
N4320 G01 X0.3348 Y195.8722 Z-8.7611 C12.2132 A-100.3441 F#10
N4330 G01 X0.6504 Y195.8806 Z-9.1474 C11.7824 A-100.4008 F#10
N4340 G01 X0.9463 Y195.8866 Z-9.5175 C11.3340 A-100.4448 F#10
N4350 G01 X1.2429 Y195.8894 Z-9.8959 C10.8411 A-100.4788 F#10
N4360 G01 X1.6319 Y195.8886 Z-10.4044 C10.1296 A-100.5074 F#10
N4370 G01 X1.9949 Y195.8825 Z-10.8910 C9.3986 A-100.5156 F#10
N4380 G01 X2.2899 Y195.8741 Z-11.2949 C8.7597 A-100.5077 F#10
N4390 G01 X2.5773 Y195.8632 Z-11.6964 C8.0984 A-100.4864 F#10
N4400 G01 X2.8842 Y195.8480 Z-12.1344 C7.3484 A-100.4472 F#10
N4410 G01 X3.2583 Y195.8253 Z-12.6801 C6.3766 A-100.3750 F#10
N4420 G01 X3.6390 Y195.7979 Z-13.2519 C5.3173 A-100.2701 F#10
N4430 G01 X3.9566 Y195.7716 Z-13.7408 C4.3824 A-100.1567 F#10
N4440 G01 X4.2440 Y195.7451 Z-14.1923 C3.4980 A-100.0319 F#10
N4450 G01 X4.5204 Y195.7158 Z-14.6365 C2.6118 A-99.8898 F#10
N4460 G01 X4.7896 Y195.6847 Z-15.0760 C1.7185 A-99.7299 F#10
N4470 G01 X5.0577 Y195.6513 Z-15.5233 C0.7938 A-99.5475 F#10
N4480 G01 X5.3194 Y195.6149 Z-15.9688 C-0.1437 A-99.3452 F#10
N4490 G01 X5.5807 Y195.5758 Z-16.4233 C-1.1154 A-99.1181 F#10
N4500 G01 X5.8591 Y195.5309 Z-16.9196 C-2.1946 A-98.8451 F#10
N4510 G01 X6.1519 Y195.4796 Z-17.4540 C-3.3781 A-98.5216 F#10
N4520 G01 X6.3460 Y195.4424 Z-17.8165 C-4.1931 A-98.2845 F#10
N4530 G01 X6.5025 Y195.4118 Z-18.1141 C-4.8705 A-98.0790 F#10
N4540 G01 X6.6510 Y195.3799 Z-18.4086 C-5.5497 A-97.8666 F#10
N4550 G01 X6.7840 Y195.3468 Z-18.7192 C-6.2588 A-97.6383 F#10
N4560 G01 X6.8610 Y195.3226 Z-18.9438 C-6.7737 A-97.4697 F#10
N4570 G01 X6.9321 Y195.3042 Z-19.1056 C-7.1804 A-97.3370 F#10
N4580 G01 X7.0017 Y195.2908 Z-19.2173 C-7.4964 A-97.2341 F#10
N4590 G01 X7.0712 Y195.2794 Z-19.3093 C-7.7810 A-97.1411 F#10
N4600 G01 X7.1534 Y195.2672 Z-19.4052 C-8.1008 A-97.0362 F#10
N4610 G01 X7.2358 Y195.2566 Z-19.4841 C-8.3966 A-96.9387 F#10
N4620 G01 X7.3218 Y195.2468 Z-19.5521 C-8.6863 A-96.8425 F#10
N4630 G01 X7.4224 Y195.2367 Z-19.6170 C-9.0080 A-96.7347 F#10
N4640 G01 X7.5178 Y195.2284 Z-19.6662 C-9.3010 A-96.6357 F#10
N4650 G01 X7.6095 Y195.2215 Z-19.7039 C-9.5744 A-96.5424 F#10
N4660 G01 X7.7146 Y195.2145 Z-19.7367 C-9.8810 A-96.4367 F#10
N4670 G01 X7.8263 Y195.2082 Z-19.7605 C-10.2013 A-96.3248 F#10
N4680 G01 X7.9315 Y195.2033 Z-19.7730 C-10.5002 A-96.2189 F#10
N4690 G01 X8.0286 Y195.1996 Z-19.7765 C-10.7750 A-96.1202 F#10
N4700 G01 X8.1252 Y195.1966 Z-19.7722 C-11.0488 A-96.0205 F#10
N4710 G01 X8.2308 Y195.1944 Z-19.7584 C-11.3499 A-95.9090 F#10
N4720 G01 X8.3340 Y195.1932 Z-19.7354 C-11.6481 A-95.7967 F#10
N4730 G01 X8.4308 Y195.1929 Z-19.7049 C-11.9330 A-95.6874 F#10
N4740 G01 X8.5292 Y195.1937 Z-19.6643 C-12.2295 A-95.5713 F#10
N4750 G01 X8.6186 Y195.1954 Z-19.6179 C-12.5077 A-95.4601 F#10
N4760 G01 X8.7318 Y195.1992 Z-19.5447 C-12.8753 A-95.3093 F#10
N4770 G01 X8.8144 Y195.2030 Z-19.4791 C-13.1583 A-95.1901 F#10
N4780 G01 X8.8942 Y195.2080 Z-19.4031 C-13.4491 A-95.0642 F#10
N4790 G01 X8.9656 Y195.2138 Z-19.3219 C-13.7289 A-94.9395 F#10
N4800 G01 X9.0357 Y195.2213 Z-19.2259 C-14.0296 A-94.8012 F#10
N4810 G01 X9.0917 Y195.2290 Z-19.1327 C-14.2977 A-94.6737 F#10
N4820 G01 X9.1376 Y195.2373 Z-19.0384 C-14.5493 A-94.5498 F#10
N4830 G01 X9.1766 Y195.2465 Z-18.9391 C-14.7981 A-94.4227 F#10
N4840 G01 X9.2047 Y195.2560 Z-18.8384 C-15.0341 A-94.2977 F#10
N4850 G01 X9.2217 Y195.2660 Z-18.7331 C-15.2661 A-94.1695 F#10
N4860 G01 X9.2268 Y195.2768 Z-18.6260 C-15.4906 A-94.0400 F#10
N4870 G01 X9.2196 Y195.2885 Z-18.5145 C-15.7142 A-93.9045 F#10
N4880 G01 X9.1988 Y195.3011 Z-18.4017 C-15.9330 A-93.7649 F#10
N4890 G01 X9.1634 Y195.3144 Z-18.2885 C-16.1482 A-93.6200 F#10
N4900 G01 X9.1118 Y195.3283 Z-18.1725 C-16.3657 A-93.4644 F#10
N4910 G01 X9.0536 Y195.3427 Z-18.0492 C-16.5822 A-93.2971 F#10
N4920 G01 X8.9810 Y195.3603 Z-17.8997 C-16.8318 A-93.0893 F#10
N4930 G01 X8.8868 Y195.3811 Z-17.7250 C-17.0955 A-92.8399 F#10
N4940 G01 X8.7643 Y195.4048 Z-17.5283 C-17.3641 A-92.5462 F#10
N4950 G01 X8.6024 Y195.4320 Z-17.2975 C-17.6505 A-92.1863 F#10
N4960 G01 X8.3658 Y195.4709 Z-16.9644 C-17.9950 A-91.6590 F#10
N4970 G01 X8.2429 Y195.4921 Z-16.7609 C-18.1583 A-91.3494 F#10
N4980 G01 X8.1307 Y195.5127 Z-16.5549 C-18.2953 A-91.0428 F#10
N4990 G01 X7.9117 Y195.5532 Z-16.1239 C-18.5034 A-90.4093 F#10
N5000 G01 X7.6729 Y195.5941 Z-15.6526 C-18.6334 A-89.7204 F#10
N5010 G01 X7.4267 Y195.6306 Z-15.1754 C-18.6703 A-89.0274 F#10
N5020 G01 X7.1609 Y195.6653 Z-14.6708 C-18.6169 A-88.3049 F#10
N5030 G01 X6.8724 Y195.6974 Z-14.1354 C-18.4412 A-87.5549 F#10
N5040 G01 X6.6091 Y195.7220 Z-13.6560 C-18.1752 A-86.8992 F#10
N5050 G01 X6.3784 Y195.7399 Z-13.2437 C-17.8711 A-86.3494 F#10
N5060 G01 X6.1652 Y195.7540 Z-12.8691 C-17.5340 A-85.8647 F#10
N5070 G01 X5.9538 Y195.7660 Z-12.5033 C-17.1495 A-85.4089 F#10
N5080 G01 X5.7381 Y195.7752 Z-12.1359 C-16.7095 A-84.9713 F#10
N5090 G01 X5.4867 Y195.7832 Z-11.7150 C-16.1399 A-84.4982 F#10
N5100 G01 X5.1698 Y195.7884 Z-11.1959 C-15.3487 A-83.9415 F#10
N5110 G01 X4.9323 Y195.7889 Z-10.8156 C-14.7107 A-83.5486 F#10
N5120 G01 X4.7014 Y195.7861 Z-10.4523 C-14.0560 A-83.1906 F#10
N5130 G01 X4.4611 Y195.7802 Z-10.0818 C-13.3468 A-82.8437 F#10
N5140 G01 X4.1419 Y195.7686 Z-9.6001 C-12.3677 A-82.4185 F#10
N5150 G01 X3.7505 Y195.7500 Z-9.0272 C-11.1235 A-81.9495 F#10
N5160 G01 X3.4636 Y195.7345 Z-8.6187 C-10.1898 A-81.6397 F#10
N5170 G01 X3.1826 Y195.7184 Z-8.2286 C-9.2665 A-81.3647 F#10
N5180 G01 X2.8963 Y195.7017 Z-7.8418 C-8.3224 A-81.1142 F#10
N5190 G01 X2.5913 Y195.6824 Z-7.4410 C-7.3183 A-80.8786 F#10
N5200 G01 X2.2409 Y195.6606 Z-6.9955 C-6.1730 A-80.6476 F#10
N5210 G01 X1.8755 Y195.6388 Z-6.5479 C-4.9937 A-80.4514 F#10
N5220 G01 X1.5576 Y195.6202 Z-6.1729 C-3.9860 A-80.3172 F#10
N5230 G01 X1.2782 Y195.6042 Z-5.8544 C-3.1179 A-80.2270 F#10
N5240 G01 X1.0126 Y195.5895 Z-5.5609 C-2.3100 A-80.1650 F#10
N5250 G01 X0.7463 Y195.5752 Z-5.2760 C-1.5195 A-80.1260 F#10
N5260 G01 X0.4710 Y195.5615 Z-4.9912 C-0.7242 A-80.1106 F#10
N5270 G01 X0.1578 Y195.5467 Z-4.6789 C0.1517 A-80.1236 F#10
N5280 G01 X-0.1889 Y195.5316 Z-4.3477 C1.0836 A-80.1742 F#10
N5290 G01 X-0.5201 Y195.5190 Z-4.0461 C1.9333 A-80.2695 F#10
N5300 G01 X-0.8201 Y195.5083 Z-3.7847 C2.6685 A-80.4037 F#10
N5310 G01 X-1.0942 Y195.5002 Z-3.5555 C3.3109 A-80.5711 F#10
N5320 G01 X-1.2366 Y195.4961 Z-3.4402 C3.6332 A-80.6767 F#10
N5330 G01 X-1.3614 Y195.4925 Z-3.3412 C3.9093 A-80.7800 F#10
N5340 G01 X-1.4962 Y195.4889 Z-3.2362 C4.2010 A-80.9034 F#10
N5350 G01 X-1.8209 Y195.4815 Z-2.9898 C4.8781 A-81.2532 F#10
N5360 G01 X-1.9816 Y195.4775 Z-2.8655 C5.2051 A-81.4591 F#10
N5370 G01 X-2.1467 Y195.4731 Z-2.7293 C5.5407 A-81.7001 F#10
N5380 G01 X-2.3035 Y195.4688 Z-2.5824 C5.8681 A-81.9684 F#10
N5390 G01 X-2.4441 Y195.4650 Z-2.4312 C6.1739 A-82.2516 F#10
N5400 G01 X-2.5667 Y195.4617 Z-2.3026 C6.4303 A-82.5166 F#10
N5410 G01 X-2.7579 Y195.4566 Z-2.1296 C6.7923 A-82.9394 F#10
N5420 G01 X-2.9321 Y195.4527 Z-2.0042 C7.0949 A-83.3436 F#10
N5430 G01 X-3.1051 Y195.4493 Z-1.9039 C7.3841 A-83.7707 F#10
N5440 G01 X-3.2670 Y195.4460 Z-1.8205 C7.6511 A-84.1953 F#10
N5450 G01 X-3.4136 Y195.4430 Z-1.7511 C7.8945 A-84.6022 F#10
N5460 G01 X-3.5570 Y195.4400 Z-1.6876 C8.1321 A-85.0165 F#10
N5470 G01 X-3.6980 Y195.4369 Z-1.6282 C8.3665 A-85.4386 F#10
N5480 G01 X-3.8244 Y195.4342 Z-1.5783 C8.5767 A-85.8272 F#10
N5490 G01 X-3.9438 Y195.4316 Z-1.5468 C8.7703 A-86.1924 F#10
N5500 G01 X-4.0607 Y195.4292 Z-1.5312 C8.9571 A-86.5512 F#10
N5510 G01 X-4.1770 Y195.4267 Z-1.5300 C9.1431 A-86.9142 F#10
N5520 G01 X-4.2872 Y195.4245 Z-1.5421 C9.3216 A-87.2676 F#10
N5530 G01 X-4.3871 Y195.4224 Z-1.5648 C9.4873 A-87.5997 F#10
N5540 G01 X-4.4952 Y195.4203 Z-1.6031 C9.6733 A-87.9773 F#10
N5550 G01 X-4.5947 Y195.4184 Z-1.6521 C9.8534 A-88.3470 F#10
N5560 G01 X-4.6858 Y195.4167 Z-1.7096 C10.0279 A-88.7091 F#10
N5570 G01 X-4.7722 Y195.4152 Z-1.7759 C10.2037 A-89.0774 F#10
N5580 G01 X-4.8527 Y195.4139 Z-1.8509 C10.3798 A-89.4499 F#10
N5590 G01 X-4.9242 Y195.4128 Z-1.9326 C10.5524 A-89.8178 F#10
N5600 G01 X-4.9857 Y195.4126 Z-2.0184 C10.7182 A-90.1743 F#10
N5610 G01 X-5.0404 Y195.4130 Z-2.1112 C10.8852 A-90.5360 F#10
N5620 G01 X-5.0861 Y195.4136 Z-2.2104 C11.0518 A-90.8992 F#10
N5630 G01 X-5.1212 Y195.4146 Z-2.3113 C11.2118 A-91.2501 F#10
N5640 G01 X-5.1466 Y195.4159 Z-2.4146 C11.3680 A-91.5949 F#10
N5650 G01 X-5.1628 Y195.4178 Z-2.5216 C11.5230 A-91.9389 F#10
N5660 G01 X-5.1688 Y195.4204 Z-2.6306 C11.6753 A-92.2785 F#10
N5670 G01 X-5.1644 Y195.4234 Z-2.7406 C11.8245 A-92.6125 F#10
N5680 G01 X-5.1493 Y195.4267 Z-2.8510 C11.9707 A-92.9413 F#10
N5690 G01 X-5.1234 Y195.4303 Z-2.9612 C12.1138 A-93.2642 F#10
N5700 G01 X-5.0851 Y195.4344 Z-3.0736 C12.2579 A-93.5905 F#10
N5710 G01 X-5.0343 Y195.4396 Z-3.1840 C12.3988 A-93.9103 F#10
N5720 G01 X-4.9682 Y195.4451 Z-3.2928 C12.5388 A-94.2286 F#10
N5730 G01 X-4.8793 Y195.4514 Z-3.4039 C12.6854 A-94.5625 F#10
N5740 G01 X-4.7843 Y195.4577 Z-3.5133 C12.8256 A-94.8835 F#10
N5750 G01 X-4.6754 Y195.4650 Z-3.6303 C12.9711 A-95.2219 F#10
N5760 G01 X-4.5012 Y195.4762 Z-3.7884 C13.1654 A-95.6848 F#10
N5770 G01 X-4.3893 Y195.4827 Z-3.8750 C13.2714 A-95.9445 F#10
N5780 G01 X-4.2574 Y195.4900 Z-3.9726 C13.3846 A-96.2289 F#10
N5790 G01 X-3.9044 Y195.5114 Z-4.2810 C13.6519 A-96.9504 F#10
N5800 G01 X-3.5543 Y195.5337 Z-4.6095 C13.8478 A-97.5664 F#10
N5810 G01 X-3.1149 Y195.5608 Z-5.0282 C13.9924 A-98.1906 F#10
N5820 G01 X-2.6632 Y195.5883 Z-5.4700 C14.0351 A-98.6898 F#10
N5830 G01 X-2.1710 Y195.6167 Z-5.9645 C13.9719 A-99.1040 F#10
N5840 G01 X-1.6892 Y195.6428 Z-6.4662 C13.8162 A-99.4236 F#10
N5850 G01 X-1.1973 Y195.6686 Z-6.9939 C13.5763 A-99.7030 F#10
N5860 G01 X-0.6478 Y195.6956 Z-7.6050 C13.1934 A-99.9641 F#10
N5870 G01 X-0.0832 Y195.7187 Z-8.2572 C12.6523 A-100.1790 F#10
N5880 G01 X0.3296 Y195.7332 Z-8.7506 C12.1588 A-100.2818 F#10
N5890 G01 X0.6442 Y195.7416 Z-9.1372 C11.7269 A-100.3421 F#10
N5900 G01 X0.9392 Y195.7478 Z-9.5075 C11.2774 A-100.3898 F#10
N5910 G01 X1.2349 Y195.7517 Z-9.8860 C10.7832 A-100.4279 F#10
N5920 G01 X1.6226 Y195.7512 Z-10.3948 C10.0698 A-100.4623 F#10
N5930 G01 X1.9846 Y195.7456 Z-10.8816 C9.3368 A-100.4763 F#10
N5940 G01 X2.2785 Y195.7371 Z-11.2857 C8.6962 A-100.4734 F#10
N5950 G01 X2.5647 Y195.7259 Z-11.6875 C8.0331 A-100.4572 F#10
N5960 G01 X2.8705 Y195.7112 Z-12.1258 C7.2812 A-100.4236 F#10
N5970 G01 X3.2430 Y195.6891 Z-12.6719 C6.3070 A-100.3585 F#10
N5980 G01 X3.6223 Y195.6620 Z-13.2439 C5.2454 A-100.2613 F#10
N5990 G01 X3.9387 Y195.6356 Z-13.7328 C4.3086 A-100.1543 F#10
N6000 G01 X4.2253 Y195.6090 Z-14.1844 C3.4226 A-100.0355 F#10
N6010 G01 X4.5008 Y195.5809 Z-14.6286 C2.5350 A-99.8990 F#10
N6020 G01 X4.7687 Y195.5498 Z-15.0684 C1.6405 A-99.7447 F#10
N6030 G01 X5.0354 Y195.5160 Z-15.5160 C0.7149 A-99.5678 F#10
N6040 G01 X5.2958 Y195.4802 Z-15.9619 C-0.2231 A-99.3709 F#10
N6050 G01 X5.5558 Y195.4411 Z-16.4167 C-1.1950 A-99.1491 F#10
N6060 G01 X5.8327 Y195.3949 Z-16.9131 C-2.2738 A-98.8816 F#10
N6070 G01 X6.1240 Y195.3419 Z-17.4476 C-3.4561 A-98.5636 F#10
N6080 G01 X6.3169 Y195.3047 Z-17.8104 C-4.2699 A-98.3299 F#10
N6090 G01 X6.4722 Y195.2728 Z-18.1083 C-4.9467 A-98.1271 F#10
N6100 G01 X6.6199 Y195.2414 Z-18.4030 C-5.6281 A-97.9169 F#10
N6110 G01 X6.7519 Y195.2072 Z-18.7135 C-6.3422 A-97.6902 F#10
N6120 G01 X6.8283 Y195.1831 Z-18.9382 C-6.8622 A-97.5226 F#10
N6130 G01 X6.8986 Y195.1650 Z-19.1005 C-7.2744 A-97.3905 F#10
N6140 G01 X6.9678 Y195.1512 Z-19.2133 C-7.5966 A-97.2876 F#10
N6150 G01 X7.0371 Y195.1394 Z-19.3060 C-7.8871 A-97.1946 F#10
N6160 G01 X7.1190 Y195.1268 Z-19.4029 C-8.2138 A-97.0896 F#10
N6170 G01 X7.2015 Y195.1159 Z-19.4827 C-8.5162 A-96.9919 F#10
N6180 G01 X7.2876 Y195.1060 Z-19.5514 C-8.8125 A-96.8955 F#10
N6190 G01 X7.3884 Y195.0960 Z-19.6170 C-9.1418 A-96.7876 F#10
N6200 G01 X7.4841 Y195.0877 Z-19.6669 C-9.4416 A-96.6884 F#10
N6210 G01 X7.5761 Y195.0807 Z-19.7050 C-9.7216 A-96.5949 F#10
N6220 G01 X7.6817 Y195.0737 Z-19.7383 C-10.0355 A-96.4889 F#10
N6230 G01 X7.7938 Y195.0673 Z-19.7624 C-10.3634 A-96.3766 F#10
N6240 G01 X7.8995 Y195.0623 Z-19.7752 C-10.6694 A-96.2704 F#10
N6250 G01 X7.9970 Y195.0586 Z-19.7788 C-10.9507 A-96.1714 F#10
N6260 G01 X8.0941 Y195.0557 Z-19.7747 C-11.2308 A-96.0714 F#10
N6270 G01 X8.2002 Y195.0535 Z-19.7609 C-11.5387 A-95.9596 F#10
N6280 G01 X8.3039 Y195.0524 Z-19.7379 C-11.8435 A-95.8468 F#10
N6290 G01 X8.4012 Y195.0522 Z-19.7073 C-12.1345 A-95.7371 F#10
N6300 G01 X8.5001 Y195.0530 Z-19.6666 C-12.4372 A-95.6207 F#10
N6310 G01 X8.5900 Y195.0547 Z-19.6201 C-12.7208 A-95.5091 F#10
N6320 G01 X8.7038 Y195.0585 Z-19.5465 C-13.0953 A-95.3578 F#10
N6330 G01 X8.7868 Y195.0625 Z-19.4806 C-13.3831 A-95.2381 F#10
N6340 G01 X8.8671 Y195.0678 Z-19.4042 C-13.6785 A-95.1117 F#10
N6350 G01 X8.9387 Y195.0740 Z-19.3225 C-13.9622 A-94.9866 F#10
N6360 G01 X9.0090 Y195.0819 Z-19.2259 C-14.2666 A-94.8478 F#10
N6370 G01 X9.0651 Y195.0901 Z-19.1320 C-14.5375 A-94.7198 F#10
N6380 G01 X9.1112 Y195.0983 Z-19.0372 C-14.7910 A-94.5955 F#10
N6390 G01 X9.1501 Y195.1072 Z-18.9371 C-15.0411 A-94.4680 F#10
N6400 G01 X9.1793 Y195.1166 Z-18.8362 C-15.2777 A-94.3425 F#10
N6410 G01 X9.1974 Y195.1270 Z-18.7305 C-15.5095 A-94.2139 F#10
N6420 G01 X9.2038 Y195.1382 Z-18.6229 C-15.7331 A-94.0840 F#10
N6430 G01 X9.1975 Y195.1504 Z-18.5108 C-15.9547 A-93.9480 F#10
N6440 G01 X9.1774 Y195.1630 Z-18.3973 C-16.1710 A-93.8080 F#10
N6450 G01 X9.1427 Y195.1760 Z-18.2832 C-16.3830 A-93.6627 F#10
N6460 G01 X9.0917 Y195.1901 Z-18.1663 C-16.5969 A-93.5066 F#10
N6470 G01 X9.0347 Y195.2049 Z-18.0447 C-16.8103 A-93.3377 F#10
N6480 G01 X8.9614 Y195.2234 Z-17.8924 C-17.0528 A-93.1312 F#10
N6490 G01 X8.8676 Y195.2445 Z-17.7177 C-17.3090 A-92.8824 F#10
N6500 G01 X8.7455 Y195.2681 Z-17.5209 C-17.5688 A-92.5895 F#10
N6510 G01 X8.5843 Y195.2964 Z-17.2901 C-17.8433 A-92.2306 F#10
N6520 G01 X8.3484 Y195.3354 Z-16.9570 C-18.1687 A-91.7053 F#10
N6530 G01 X8.2264 Y195.3574 Z-16.7532 C-18.3199 A-91.3971 F#10
N6540 G01 X8.1148 Y195.3785 Z-16.5473 C-18.4446 A-91.0920 F#10
N6550 G01 X7.8955 Y195.4192 Z-16.1124 C-18.6280 A-90.4575 F#10
N6560 G01 X7.6582 Y195.4591 Z-15.6409 C-18.7274 A-89.7738 F#10
N6570 G01 X7.4133 Y195.4955 Z-15.1636 C-18.7341 A-89.0872 F#10
N6580 G01 X7.1486 Y195.5298 Z-14.6589 C-18.6516 A-88.3730 F#10
N6590 G01 X6.8612 Y195.5614 Z-14.1234 C-18.4509 A-87.6326 F#10
N6600 G01 X6.5990 Y195.5850 Z-13.6438 C-18.1669 A-86.9843 F#10
N6610 G01 X6.3693 Y195.6025 Z-13.2314 C-17.8512 A-86.4393 F#10
N6620 G01 X6.1572 Y195.6170 Z-12.8565 C-17.5070 A-85.9575 F#10
N6630 G01 X5.9468 Y195.6280 Z-12.4904 C-17.1164 A-85.5042 F#10
N6640 G01 X5.7320 Y195.6374 Z-12.1229 C-16.6707 A-85.0690 F#10
N6650 G01 X5.4818 Y195.6454 Z-11.7017 C-16.0947 A-84.5983 F#10
N6660 G01 X5.1661 Y195.6501 Z-11.1823 C-15.2970 A-84.0442 F#10
N6670 G01 X4.9296 Y195.6498 Z-10.8018 C-14.6549 A-83.6532 F#10
N6680 G01 X4.6995 Y195.6469 Z-10.4383 C-13.9970 A-83.2970 F#10
N6690 G01 X4.4602 Y195.6410 Z-10.0674 C-13.2854 A-82.9519 F#10
N6700 G01 X4.1422 Y195.6289 Z-9.5855 C-12.3045 A-82.5288 F#10
N6710 G01 X3.7522 Y195.6096 Z-9.0121 C-11.0604 A-82.0621 F#10
N6720 G01 X3.4662 Y195.5934 Z-8.6033 C-10.1284 A-81.7539 F#10
N6730 G01 X3.1860 Y195.5771 Z-8.2130 C-9.2082 A-81.4805 F#10
N6740 G01 X2.9005 Y195.5600 Z-7.8260 C-8.2687 A-81.2314 F#10
N6750 G01 X2.5963 Y195.5402 Z-7.4249 C-7.2710 A-80.9974 F#10
N6760 G01 X2.2469 Y195.5179 Z-6.9789 C-6.1343 A-80.7678 F#10
N6770 G01 X1.8827 Y195.4955 Z-6.5307 C-4.9638 A-80.5731 F#10
N6780 G01 X1.5657 Y195.4765 Z-6.1553 C-3.9638 A-80.4397 F#10
N6790 G01 X1.2873 Y195.4603 Z-5.8362 C-3.1023 A-80.3499 F#10
N6800 G01 X1.0224 Y195.4453 Z-5.5423 C-2.3005 A-80.2880 F#10
N6810 G01 X0.7569 Y195.4307 Z-5.2570 C-1.5160 A-80.2489 F#10
N6820 G01 X0.4823 Y195.4168 Z-4.9717 C-0.7266 A-80.2333 F#10
N6830 G01 X0.1699 Y195.4018 Z-4.6589 C0.1429 A-80.2457 F#10
N6840 G01 X-0.1761 Y195.3865 Z-4.3273 C1.0679 A-80.2953 F#10
N6850 G01 X-0.5064 Y195.3736 Z-4.0251 C1.9115 A-80.3893 F#10
N6860 G01 X-0.8058 Y195.3628 Z-3.7633 C2.6416 A-80.5218 F#10
N6870 G01 X-1.0794 Y195.3545 Z-3.5338 C3.2796 A-80.6872 F#10
N6880 G01 X-1.2215 Y195.3503 Z-3.4184 C3.5998 A-80.7914 F#10
N6890 G01 X-1.3461 Y195.3467 Z-3.3193 C3.8741 A-80.8935 F#10
N6900 G01 X-1.4807 Y195.3432 Z-3.2142 C4.1640 A-81.0154 F#10
N6910 G01 X-1.8044 Y195.3355 Z-2.9679 C4.8359 A-81.3602 F#10
N6920 G01 X-1.9651 Y195.3314 Z-2.8436 C5.1610 A-81.5636 F#10
N6930 G01 X-2.1301 Y195.3270 Z-2.7075 C5.4948 A-81.8015 F#10
N6940 G01 X-2.2870 Y195.3228 Z-2.5609 C5.8205 A-82.0664 F#10
N6950 G01 X-2.4276 Y195.3189 Z-2.4099 C6.1249 A-82.3462 F#10
N6960 G01 X-2.5498 Y195.3154 Z-2.2811 C6.3803 A-82.6079 F#10
N6970 G01 X-2.7405 Y195.3102 Z-2.1077 C6.7412 A-83.0256 F#10
N6980 G01 X-2.9141 Y195.3066 Z-1.9817 C7.0430 A-83.4247 F#10
N6990 G01 X-3.0867 Y195.3032 Z-1.8808 C7.3314 A-83.8465 F#10
N7000 G01 X-3.2486 Y195.2998 Z-1.7972 C7.5973 A-84.2651 F#10
N7010 G01 X-3.3956 Y195.2967 Z-1.7273 C7.8414 A-84.6682 F#10
N7020 G01 X-3.5396 Y195.2937 Z-1.6635 C8.0796 A-85.0780 F#10
N7030 G01 X-3.6812 Y195.2906 Z-1.6037 C8.3150 A-85.4954 F#10
N7040 G01 X-3.8079 Y195.2878 Z-1.5530 C8.5266 A-85.8796 F#10
N7050 G01 X-3.9277 Y195.2854 Z-1.5214 C8.7217 A-86.2408 F#10
N7060 G01 X-4.0450 Y195.2831 Z-1.5058 C8.9103 A-86.5957 F#10
N7070 G01 X-4.1618 Y195.2806 Z-1.5047 C9.0983 A-86.9547 F#10
N7080 G01 X-4.2725 Y195.2782 Z-1.5170 C9.2790 A-87.3044 F#10
N7090 G01 X-4.3727 Y195.2762 Z-1.5400 C9.4469 A-87.6332 F#10
N7100 G01 X-4.4812 Y195.2741 Z-1.5787 C9.6357 A-88.0071 F#10
N7110 G01 X-4.5813 Y195.2722 Z-1.6277 C9.8187 A-88.3734 F#10
N7120 G01 X-4.6731 Y195.2706 Z-1.6851 C9.9962 A-88.7324 F#10
N7130 G01 X-4.7601 Y195.2691 Z-1.7515 C10.1751 A-89.0976 F#10
N7140 G01 X-4.8411 Y195.2679 Z-1.8265 C10.3546 A-89.4673 F#10
N7150 G01 X-4.9132 Y195.2669 Z-1.9084 C10.5306 A-89.8328 F#10
N7160 G01 X-4.9752 Y195.2665 Z-1.9944 C10.7000 A-90.1872 F#10
N7170 G01 X-5.0303 Y195.2669 Z-2.0875 C10.8707 A-90.5471 F#10
N7180 G01 X-5.0767 Y195.2676 Z-2.1870 C11.0412 A-90.9089 F#10
N7190 G01 X-5.1120 Y195.2687 Z-2.2882 C11.2050 A-91.2588 F#10
N7200 G01 X-5.1378 Y195.2701 Z-2.3920 C11.3651 A-91.6029 F#10
N7210 G01 X-5.1542 Y195.2719 Z-2.4994 C11.5242 A-91.9468 F#10
N7220 G01 X-5.1606 Y195.2747 Z-2.6088 C11.6806 A-92.2867 F#10
N7230 G01 X-5.1562 Y195.2778 Z-2.7193 C11.8339 A-92.6217 F#10
N7240 G01 X-5.1411 Y195.2812 Z-2.8302 C11.9843 A-92.9519 F#10
N7250 G01 X-5.1151 Y195.2849 Z-2.9409 C12.1317 A-93.2771 F#10
N7260 G01 X-5.0766 Y195.2891 Z-3.0537 C12.2802 A-93.6063 F#10
N7270 G01 X-5.0256 Y195.2944 Z-3.1646 C12.4257 A-93.9299 F#10
N7280 G01 X-4.9591 Y195.3001 Z-3.2737 C12.5703 A-94.2531 F#10
N7290 G01 X-4.8699 Y195.3065 Z-3.3853 C12.7220 A-94.5936 F#10
N7300 G01 X-4.7746 Y195.3129 Z-3.4952 C12.8671 A-94.9217 F#10
N7310 G01 X-4.6648 Y195.3203 Z-3.6132 C13.0172 A-95.2672 F#10
N7320 G01 X-4.4912 Y195.3317 Z-3.7705 C13.2155 A-95.7356 F#10
N7330 G01 X-4.3794 Y195.3383 Z-3.8571 C13.3230 A-95.9973 F#10
N7340 G01 X-4.2478 Y195.3457 Z-3.9547 C13.4369 A-96.2825 F#10
N7350 G01 X-3.8960 Y195.3674 Z-4.2639 C13.7010 A-96.9991 F#10
N7360 G01 X-3.5470 Y195.3900 Z-4.5931 C13.8875 A-97.6024 F#10
N7370 G01 X-3.1092 Y195.4174 Z-5.0127 C14.0145 A-98.2032 F#10
N7380 G01 X-2.6589 Y195.4451 Z-5.4554 C14.0350 A-98.6738 F#10
N7390 G01 X-2.1688 Y195.4739 Z-5.9512 C13.9480 A-99.0584 F#10
N7400 G01 X-1.6885 Y195.5007 Z-6.4536 C13.7740 A-99.3570 F#10
N7410 G01 X-1.1983 Y195.5271 Z-6.9821 C13.5256 A-99.6299 F#10
N7420 G01 X-0.6504 Y195.5548 Z-7.5936 C13.1407 A-99.8935 F#10
N7430 G01 X-0.0875 Y195.5786 Z-8.2463 C12.5990 A-100.1127 F#10
N7440 G01 X0.3240 Y195.5939 Z-8.7400 C12.1043 A-100.2195 F#10
N7450 G01 X0.6376 Y195.6028 Z-9.1268 C11.6714 A-100.2834 F#10
N7460 G01 X0.9317 Y195.6094 Z-9.4973 C11.2208 A-100.3348 F#10
N7470 G01 X1.2265 Y195.6136 Z-9.8760 C10.7253 A-100.3770 F#10
N7480 G01 X1.6127 Y195.6135 Z-10.3851 C10.0100 A-100.4171 F#10
N7490 G01 X1.9737 Y195.6083 Z-10.8719 C9.2750 A-100.4370 F#10
N7500 G01 X2.2665 Y195.6000 Z-11.2762 C8.6326 A-100.4390 F#10
N7510 G01 X2.5516 Y195.5891 Z-11.6782 C7.9679 A-100.4280 F#10
N7520 G01 X2.8563 Y195.5746 Z-12.1167 C7.2139 A-100.4000 F#10
N7530 G01 X3.2274 Y195.5527 Z-12.6630 C6.2373 A-100.3421 F#10
N7540 G01 X3.6054 Y195.5259 Z-13.2350 C5.1734 A-100.2524 F#10
N7550 G01 X3.9208 Y195.4995 Z-13.7240 C4.2348 A-100.1520 F#10
N7560 G01 X4.2058 Y195.4728 Z-14.1760 C3.3472 A-100.0390 F#10
N7570 G01 X4.4797 Y195.4446 Z-14.6206 C2.4582 A-99.9083 F#10
N7580 G01 X4.7464 Y195.4136 Z-15.0606 C1.5626 A-99.7596 F#10
N7590 G01 X5.0120 Y195.3795 Z-15.5083 C0.6360 A-99.5882 F#10
N7600 G01 X5.2711 Y195.3435 Z-15.9543 C-0.3026 A-99.3966 F#10
N7610 G01 X5.5300 Y195.3043 Z-16.4092 C-1.2745 A-99.1801 F#10
N7620 G01 X5.8054 Y195.2576 Z-16.9059 C-2.3529 A-98.9181 F#10
N7630 G01 X6.0947 Y195.2042 Z-17.4408 C-3.5342 A-98.6055 F#10
N7640 G01 X6.2866 Y195.1664 Z-17.8038 C-4.3467 A-98.3754 F#10
N7650 G01 X6.4410 Y195.1344 Z-18.1017 C-5.0229 A-98.1752 F#10
N7660 G01 X6.5879 Y195.1025 Z-18.3964 C-5.7066 A-97.9671 F#10
N7670 G01 X6.7195 Y195.0680 Z-18.7067 C-6.4256 A-97.7422 F#10
N7680 G01 X6.7949 Y195.0438 Z-18.9316 C-6.9507 A-97.5756 F#10
N7690 G01 X6.8639 Y195.0252 Z-19.0945 C-7.3685 A-97.4441 F#10
N7700 G01 X6.9326 Y195.0112 Z-19.2085 C-7.6968 A-97.3411 F#10
N7710 G01 X7.0019 Y194.9993 Z-19.3020 C-7.9932 A-97.2480 F#10
N7720 G01 X7.0837 Y194.9865 Z-19.3999 C-8.3268 A-97.1430 F#10
N7730 G01 X7.1661 Y194.9755 Z-19.4805 C-8.6358 A-97.0451 F#10
N7740 G01 X7.2523 Y194.9655 Z-19.5501 C-8.9388 A-96.9486 F#10
N7750 G01 X7.3533 Y194.9553 Z-19.6165 C-9.2755 A-96.8405 F#10
N7760 G01 X7.4493 Y194.9468 Z-19.6670 C-9.5823 A-96.7411 F#10
N7770 G01 X7.5416 Y194.9396 Z-19.7057 C-9.8688 A-96.6473 F#10
N7780 G01 X7.6475 Y194.9324 Z-19.7395 C-10.1900 A-96.5410 F#10
N7790 G01 X7.7601 Y194.9260 Z-19.7642 C-10.5256 A-96.4285 F#10
N7800 G01 X7.8663 Y194.9210 Z-19.7773 C-10.8386 A-96.3220 F#10
N7810 G01 X7.9643 Y194.9173 Z-19.7812 C-11.1264 A-96.2227 F#10
N7820 G01 X8.0619 Y194.9144 Z-19.7772 C-11.4128 A-96.1223 F#10
N7830 G01 X8.1685 Y194.9123 Z-19.7635 C-11.7275 A-96.0101 F#10
N7840 G01 X8.2727 Y194.9112 Z-19.7405 C-12.0389 A-95.8970 F#10
N7850 G01 X8.3705 Y194.9112 Z-19.7097 C-12.3360 A-95.7869 F#10
N7860 G01 X8.4700 Y194.9123 Z-19.6689 C-12.6448 A-95.6700 F#10
N7870 G01 X8.5603 Y194.9141 Z-19.6221 C-12.9339 A-95.5581 F#10
N7880 G01 X8.6746 Y194.9180 Z-19.5480 C-13.3152 A-95.4062 F#10
N7890 G01 X8.7580 Y194.9222 Z-19.4817 C-13.6079 A-95.2861 F#10
N7900 G01 X8.8386 Y194.9277 Z-19.4048 C-13.9079 A-95.1593 F#10
N7910 G01 X8.9106 Y194.9340 Z-19.3226 C-14.1955 A-95.0337 F#10
N7920 G01 X8.9812 Y194.9421 Z-19.2254 C-14.5036 A-94.8944 F#10
N7930 G01 X9.0376 Y194.9505 Z-19.1311 C-14.7772 A-94.7659 F#10
N7940 G01 X9.0838 Y194.9593 Z-19.0357 C-15.0327 A-94.6412 F#10
N7950 G01 X9.1230 Y194.9683 Z-18.9350 C-15.2841 A-94.5132 F#10
N7960 G01 X9.1524 Y194.9779 Z-18.8335 C-15.5213 A-94.3873 F#10
N7970 G01 X9.1722 Y194.9884 Z-18.7276 C-15.7530 A-94.2583 F#10
N7980 G01 X9.1797 Y194.9996 Z-18.6194 C-15.9755 A-94.1279 F#10
N7990 G01 X9.1747 Y195.0120 Z-18.5067 C-16.1953 A-93.9916 F#10
N8000 G01 X9.1559 Y195.0251 Z-18.3924 C-16.4089 A-93.8511 F#10
N8010 G01 X9.1222 Y195.0382 Z-18.2774 C-16.6179 A-93.7054 F#10
N8020 G01 X9.0712 Y195.0524 Z-18.1597 C-16.8280 A-93.5489 F#10
N8030 G01 X9.0138 Y195.0674 Z-18.0363 C-17.0384 A-93.3784 F#10
N8040 G01 X8.9413 Y195.0859 Z-17.8846 C-17.2737 A-93.1731 F#10
N8050 G01 X8.8480 Y195.1075 Z-17.7099 C-17.5225 A-92.9248 F#10
N8060 G01 X8.7264 Y195.1311 Z-17.5130 C-17.7735 A-92.6327 F#10
N8070 G01 X8.5658 Y195.1595 Z-17.2821 C-18.0361 A-92.2749 F#10
N8080 G01 X8.3315 Y195.1989 Z-16.9484 C-18.3424 A-91.7515 F#10
N8090 G01 X8.2101 Y195.2209 Z-16.7445 C-18.4816 A-91.4447 F#10
N8100 G01 X8.0997 Y195.2423 Z-16.5382 C-18.5938 A-91.1411 F#10
N8110 G01 X7.8837 Y195.2826 Z-16.1072 C-18.7490 A-90.5161 F#10
N8120 G01 X7.6475 Y195.3228 Z-15.6354 C-18.8197 A-89.8371 F#10
N8130 G01 X7.4036 Y195.3593 Z-15.1579 C-18.7979 A-89.1564 F#10
N8140 G01 X7.1403 Y195.3937 Z-14.6527 C-18.6878 A-88.4497 F#10
N8150 G01 X6.8548 Y195.4254 Z-14.1164 C-18.4637 A-87.7184 F#10
N8160 G01 X6.5938 Y195.4489 Z-13.6362 C-18.1629 A-87.0769 F#10
N8170 G01 X6.3650 Y195.4664 Z-13.2234 C-17.8367 A-86.5362 F#10
N8180 G01 X6.1536 Y195.4806 Z-12.8482 C-17.4861 A-86.0569 F#10
N8190 G01 X5.9439 Y195.4916 Z-12.4819 C-17.0900 A-85.6056 F#10
N8200 G01 X5.7299 Y195.5008 Z-12.1140 C-16.6389 A-85.1722 F#10
N8210 G01 X5.4804 Y195.5084 Z-11.6924 C-16.0574 A-84.7032 F#10
N8220 G01 X5.1659 Y195.5128 Z-11.1724 C-15.2536 A-84.1513 F#10
N8230 G01 X4.9301 Y195.5124 Z-10.7916 C-14.6077 A-83.7620 F#10
N8240 G01 X4.7008 Y195.5093 Z-10.4277 C-13.9469 A-83.4071 F#10
N8250 G01 X4.4624 Y195.5029 Z-10.0563 C-13.2329 A-83.0633 F#10
N8260 G01 X4.1454 Y195.4903 Z-9.5738 C-12.2501 A-82.6419 F#10
N8270 G01 X3.7571 Y195.4703 Z-8.9995 C-11.0060 A-82.1770 F#10
N8280 G01 X3.4720 Y195.4535 Z-8.5901 C-10.0757 A-81.8701 F#10
N8290 G01 X3.1927 Y195.4367 Z-8.1992 C-9.1582 A-81.5979 F#10
N8300 G01 X2.9081 Y195.4188 Z-7.8115 C-8.2230 A-81.3500 F#10
N8310 G01 X2.6049 Y195.3990 Z-7.4096 C-7.2313 A-81.1173 F#10
N8320 G01 X2.2564 Y195.3758 Z-6.9629 C-6.1027 A-80.8889 F#10
N8330 G01 X1.8930 Y195.3527 Z-6.5141 C-4.9405 A-80.6954 F#10
N8340 G01 X1.5767 Y195.3333 Z-6.1381 C-3.9476 A-80.5626 F#10
N8350 G01 X1.2988 Y195.3168 Z-5.8185 C-3.0923 A-80.4730 F#10
N8360 G01 X1.0342 Y195.3015 Z-5.5243 C-2.2963 A-80.4111 F#10
N8370 G01 X0.7692 Y195.2867 Z-5.2385 C-1.5173 A-80.3718 F#10
N8380 G01 X0.4952 Y195.2719 Z-4.9527 C-0.7334 A-80.3558 F#10
N8390 G01 X0.1835 Y195.2570 Z-4.6393 C0.1300 A-80.3674 F#10
N8400 G01 X-0.1618 Y195.2411 Z-4.3069 C1.0488 A-80.4161 F#10
N8410 G01 X-0.4917 Y195.2282 Z-4.0042 C1.8868 A-80.5086 F#10
N8420 G01 X-0.7905 Y195.2172 Z-3.7418 C2.6121 A-80.6393 F#10
N8430 G01 X-1.0637 Y195.2087 Z-3.5119 C3.2461 A-80.8025 F#10
N8440 G01 X-1.2057 Y195.2047 Z-3.3963 C3.5643 A-80.9054 F#10
N8450 G01 X-1.3301 Y195.2012 Z-3.2970 C3.8370 A-81.0061 F#10
N8460 G01 X-1.4645 Y195.1974 Z-3.1917 C4.1251 A-81.1265 F#10
N8470 G01 X-1.7881 Y195.1895 Z-2.9449 C4.7937 A-81.4673 F#10
N8480 G01 X-1.9486 Y195.1855 Z-2.8204 C5.1170 A-81.6680 F#10
N8490 G01 X-2.1136 Y195.1812 Z-2.6845 C5.4489 A-81.9030 F#10
N8500 G01 X-2.2703 Y195.1765 Z-2.5379 C5.7729 A-82.1645 F#10
N8510 G01 X-2.4107 Y195.1725 Z-2.3868 C6.0759 A-82.4407 F#10
N8520 G01 X-2.5326 Y195.1692 Z-2.2578 C6.3303 A-82.6993 F#10
N8530 G01 X-2.7225 Y195.1643 Z-2.0839 C6.6901 A-83.1117 F#10
N8540 G01 X-2.8956 Y195.1601 Z-1.9572 C6.9910 A-83.5059 F#10
N8550 G01 X-3.0677 Y195.1566 Z-1.8558 C7.2786 A-83.9222 F#10
N8560 G01 X-3.2297 Y195.1535 Z-1.7720 C7.5436 A-84.3349 F#10
N8570 G01 X-3.3773 Y195.1506 Z-1.7017 C7.7883 A-84.7341 F#10
N8580 G01 X-3.5219 Y195.1476 Z-1.6375 C8.0272 A-85.1395 F#10
N8590 G01 X-3.6640 Y195.1447 Z-1.5775 C8.2635 A-85.5522 F#10
N8600 G01 X-3.7915 Y195.1421 Z-1.5273 C8.4764 A-85.9320 F#10
N8610 G01 X-3.9119 Y195.1395 Z-1.4956 C8.6731 A-86.2892 F#10
N8620 G01 X-4.0297 Y195.1371 Z-1.4799 C8.8635 A-86.6401 F#10
N8630 G01 X-4.1470 Y195.1347 Z-1.4790 C9.0535 A-86.9953 F#10
N8640 G01 X-4.2580 Y195.1324 Z-1.4916 C9.2364 A-87.3413 F#10
N8650 G01 X-4.3587 Y195.1304 Z-1.5149 C9.4066 A-87.6667 F#10
N8660 G01 X-4.4675 Y195.1282 Z-1.5541 C9.5981 A-88.0369 F#10
N8670 G01 X-4.5684 Y195.1262 Z-1.6027 C9.7839 A-88.3998 F#10
N8680 G01 X-4.6609 Y195.1244 Z-1.6599 C9.9644 A-88.7557 F#10
N8690 G01 X-4.7488 Y195.1228 Z-1.7260 C10.1465 A-89.1179 F#10
N8700 G01 X-4.8305 Y195.1214 Z-1.8010 C10.3294 A-89.4848 F#10
N8710 G01 X-4.9032 Y195.1207 Z-1.8831 C10.5089 A-89.8478 F#10
N8720 G01 X-4.9658 Y195.1207 Z-1.9692 C10.6818 A-90.2001 F#10
N8730 G01 X-5.0215 Y195.1209 Z-2.0626 C10.8562 A-90.5582 F#10
N8740 G01 X-5.0680 Y195.1215 Z-2.1625 C11.0305 A-90.9185 F#10
N8750 G01 X-5.1038 Y195.1224 Z-2.2641 C11.1982 A-91.2674 F#10
N8760 G01 X-5.1299 Y195.1240 Z-2.3683 C11.3622 A-91.6109 F#10
N8770 G01 X-5.1463 Y195.1264 Z-2.4762 C11.5253 A-91.9547 F#10
N8780 G01 X-5.1527 Y195.1291 Z-2.5861 C11.6858 A-92.2950 F#10
N8790 G01 X-5.1486 Y195.1322 Z-2.6971 C11.8432 A-92.6309 F#10
N8800 G01 X-5.1335 Y195.1355 Z-2.8085 C11.9979 A-92.9626 F#10
N8810 G01 X-5.1073 Y195.1393 Z-2.9196 C12.1495 A-93.2899 F#10
N8820 G01 X-5.0685 Y195.1441 Z-3.0329 C12.3026 A-93.6222 F#10
N8830 G01 X-5.0175 Y195.1493 Z-3.1444 C12.4525 A-93.9496 F#10
N8840 G01 X-4.9506 Y195.1549 Z-3.2539 C12.6018 A-94.2777 F#10
N8850 G01 X-4.8610 Y195.1612 Z-3.3660 C12.7586 A-94.6248 F#10
N8860 G01 X-4.7655 Y195.1679 Z-3.4763 C12.9085 A-94.9600 F#10
N8870 G01 X-4.6554 Y195.1759 Z-3.5946 C13.0633 A-95.3124 F#10
N8880 G01 X-4.4817 Y195.1871 Z-3.7518 C13.2657 A-95.7864 F#10
N8890 G01 X-4.2387 Y195.2010 Z-3.9362 C13.4892 A-96.3362 F#10
N8900 G01 X-3.8884 Y195.2235 Z-4.2463 C13.7501 A-97.0478 F#10
N8910 G01 X-3.5405 Y195.2458 Z-4.5762 C13.9273 A-97.6384 F#10
N8920 G01 X-3.1042 Y195.2740 Z-4.9968 C14.0365 A-98.2157 F#10
N8930 G01 X-2.6556 Y195.3019 Z-5.4405 C14.0349 A-98.6578 F#10
N8940 G01 X-2.1671 Y195.3308 Z-5.9373 C13.9241 A-99.0128 F#10
N8950 G01 X-1.6887 Y195.3581 Z-6.4407 C13.7317 A-99.2903 F#10
N8960 G01 X-1.2001 Y195.3856 Z-6.9698 C13.4750 A-99.5567 F#10
N8970 G01 X-0.6537 Y195.4137 Z-7.5817 C13.0881 A-99.8229 F#10
N8980 G01 X-0.0926 Y195.4385 Z-8.2349 C12.5456 A-100.0464 F#10
N8990 G01 X0.3180 Y195.4541 Z-8.7286 C12.0499 A-100.1572 F#10
N9000 G01 X0.6304 Y195.4642 Z-9.1157 C11.6159 A-100.2247 F#10
N9010 G01 X0.9235 Y195.4708 Z-9.4864 C11.1642 A-100.2798 F#10
N9020 G01 X1.2173 Y195.4750 Z-9.8653 C10.6674 A-100.3260 F#10
N9030 G01 X1.6024 Y195.4755 Z-10.3745 C9.9502 A-100.3720 F#10
N9040 G01 X1.9621 Y195.4706 Z-10.8616 C9.2133 A-100.3976 F#10
N9050 G01 X2.2538 Y195.4632 Z-11.2662 C8.5691 A-100.4047 F#10
N9060 G01 X2.5381 Y195.4528 Z-11.6682 C7.9026 A-100.3987 F#10
N9070 G01 X2.8419 Y195.4380 Z-12.1066 C7.1466 A-100.3764 F#10
N9080 G01 X3.2113 Y195.4161 Z-12.6533 C6.1677 A-100.3257 F#10
N9090 G01 X3.5876 Y195.3893 Z-13.2257 C5.1014 A-100.2436 F#10
N9100 G01 X3.9017 Y195.3636 Z-13.7149 C4.1609 A-100.1496 F#10
N9110 G01 X4.1852 Y195.3370 Z-14.1672 C3.2718 A-100.0425 F#10
N9120 G01 X4.4582 Y195.3080 Z-14.6118 C2.3813 A-99.9175 F#10
N9130 G01 X4.7239 Y195.2773 Z-15.0518 C1.4846 A-99.7745 F#10
N9140 G01 X4.9881 Y195.2437 Z-15.4998 C0.5571 A-99.6086 F#10
N9150 G01 X5.2456 Y195.2068 Z-15.9462 C-0.3820 A-99.4223 F#10
N9160 G01 X5.5029 Y195.1668 Z-16.4014 C-1.3541 A-99.2111 F#10
N9170 G01 X5.7769 Y195.1202 Z-16.8983 C-2.4321 A-98.9545 F#10
N9180 G01 X6.0650 Y195.0666 Z-17.4333 C-3.6122 A-98.6475 F#10
N9190 G01 X6.2558 Y195.0283 Z-17.7963 C-4.4235 A-98.4208 F#10
N9200 G01 X6.4092 Y194.9961 Z-18.0945 C-5.0991 A-98.2233 F#10
N9210 G01 X6.5549 Y194.9634 Z-18.3895 C-5.7850 A-98.0173 F#10
N9220 G01 X6.6857 Y194.9294 Z-18.6998 C-6.5090 A-97.7942 F#10
N9230 G01 X6.7602 Y194.9042 Z-18.9246 C-7.0393 A-97.6286 F#10
N9240 G01 X6.8283 Y194.8855 Z-19.0881 C-7.4625 A-97.4976 F#10
N9250 G01 X6.8963 Y194.8717 Z-19.2033 C-7.7970 A-97.3946 F#10
N9260 G01 X6.9656 Y194.8597 Z-19.2976 C-8.0993 A-97.3015 F#10
N9270 G01 X7.0473 Y194.8465 Z-19.3965 C-8.4398 A-97.1963 F#10
N9280 G01 X7.1296 Y194.8351 Z-19.4780 C-8.7554 A-97.0984 F#10
N9290 G01 X7.2158 Y194.8248 Z-19.5485 C-9.0650 A-97.0017 F#10
N9300 G01 X7.3170 Y194.8143 Z-19.6157 C-9.4093 A-96.8934 F#10
N9310 G01 X7.4132 Y194.8057 Z-19.6669 C-9.7230 A-96.7937 F#10
N9320 G01 X7.5058 Y194.7984 Z-19.7061 C-10.0160 A-96.6998 F#10
N9330 G01 X7.6122 Y194.7912 Z-19.7405 C-10.3445 A-96.5932 F#10
N9340 G01 X7.7253 Y194.7848 Z-19.7655 C-10.6877 A-96.4803 F#10
N9350 G01 X7.8319 Y194.7798 Z-19.7790 C-11.0079 A-96.3735 F#10
N9360 G01 X7.9304 Y194.7761 Z-19.7831 C-11.3020 A-96.2739 F#10
N9370 G01 X8.0285 Y194.7732 Z-19.7793 C-11.5948 A-96.1732 F#10
N9380 G01 X8.1356 Y194.7711 Z-19.7658 C-11.9163 A-96.0607 F#10
N9390 G01 X8.2405 Y194.7700 Z-19.7428 C-12.2343 A-95.9472 F#10
N9400 G01 X8.3388 Y194.7700 Z-19.7121 C-12.5375 A-95.8367 F#10
N9410 G01 X8.4388 Y194.7711 Z-19.6712 C-12.8524 A-95.7194 F#10
N9420 G01 X8.5297 Y194.7732 Z-19.6243 C-13.1470 A-95.6070 F#10
N9430 G01 X8.6447 Y194.7774 Z-19.5500 C-13.5352 A-95.4546 F#10
N9440 G01 X8.7285 Y194.7819 Z-19.4833 C-13.8327 A-95.3341 F#10
N9450 G01 X8.8095 Y194.7878 Z-19.4060 C-14.1372 A-95.2068 F#10
N9460 G01 X8.8818 Y194.7946 Z-19.3233 C-14.4289 A-95.0807 F#10
N9470 G01 X8.9526 Y194.8027 Z-19.2254 C-14.7406 A-94.9410 F#10
N9480 G01 X9.0092 Y194.8109 Z-19.1304 C-15.0169 A-94.8121 F#10
N9490 G01 X9.0556 Y194.8196 Z-19.0344 C-15.2744 A-94.6869 F#10
N9500 G01 X9.0944 Y194.8293 Z-18.9330 C-15.5271 A-94.5585 F#10
N9510 G01 X9.1243 Y194.8394 Z-18.8310 C-15.7649 A-94.4322 F#10
N9520 G01 X9.1453 Y194.8503 Z-18.7248 C-15.9964 A-94.3027 F#10
N9530 G01 X9.1543 Y194.8615 Z-18.6162 C-16.2180 A-94.1719 F#10
N9540 G01 X9.1506 Y194.8735 Z-18.5027 C-16.4359 A-94.0351 F#10
N9550 G01 X9.1331 Y194.8864 Z-18.3876 C-16.6469 A-93.8942 F#10
N9560 G01 X9.1005 Y194.9001 Z-18.2716 C-16.8527 A-93.7481 F#10
N9570 G01 X9.0505 Y194.9149 Z-18.1529 C-17.0592 A-93.5911 F#10
N9580 G01 X8.9935 Y194.9303 Z-18.0297 C-17.2665 A-93.4190 F#10
N9590 G01 X8.9209 Y194.9486 Z-17.8766 C-17.4946 A-93.2151 F#10
N9600 G01 X8.8278 Y194.9699 Z-17.7018 C-17.7360 A-92.9673 F#10
N9610 G01 X8.7070 Y194.9944 Z-17.5048 C-17.9783 A-92.6760 F#10
N9620 G01 X8.5470 Y195.0228 Z-17.2737 C-18.2289 A-92.3193 F#10
N9630 G01 X8.3141 Y195.0625 Z-16.9395 C-18.5161 A-91.7978 F#10
N9640 G01 X8.1943 Y195.0846 Z-16.7351 C-18.6432 A-91.4923 F#10
N9650 G01 X8.0842 Y195.1054 Z-16.5287 C-18.7431 A-91.1902 F#10
N9660 G01 X7.8675 Y195.1469 Z-16.0924 C-18.8722 A-90.5615 F#10
N9670 G01 X7.6329 Y195.1876 Z-15.6205 C-18.9123 A-89.8878 F#10
N9680 G01 X7.3908 Y195.2241 Z-15.1426 C-18.8604 A-89.2137 F#10
N9690 G01 X7.1290 Y195.2580 Z-14.6373 C-18.7214 A-88.5154 F#10
N9700 G01 X6.8447 Y195.2892 Z-14.1009 C-18.4724 A-87.7938 F#10
N9710 G01 X6.5850 Y195.3130 Z-13.6206 C-18.1536 A-87.1598 F#10
N9720 G01 X6.3572 Y195.3309 Z-13.2077 C-17.8159 A-86.6240 F#10
N9730 G01 X6.1465 Y195.3443 Z-12.8324 C-17.4583 A-86.1477 F#10
N9740 G01 X5.9376 Y195.3556 Z-12.4660 C-17.0560 A-85.6991 F#10
N9750 G01 X5.7245 Y195.3645 Z-12.0980 C-16.5991 A-85.2681 F#10
N9760 G01 X5.4760 Y195.3717 Z-11.6763 C-16.0113 A-84.8017 F#10
N9770 G01 X5.1628 Y195.3759 Z-11.1561 C-15.2009 A-84.2526 F#10
N9780 G01 X4.9281 Y195.3752 Z-10.7750 C-14.5511 A-83.8653 F#10
N9790 G01 X4.6996 Y195.3715 Z-10.4109 C-13.8871 A-83.5124 F#10
N9800 G01 X4.4621 Y195.3643 Z-10.0394 C-13.1708 A-83.1704 F#10
N9810 G01 X4.1464 Y195.3509 Z-9.5566 C-12.1862 A-82.7512 F#10
N9820 G01 X3.7595 Y195.3302 Z-8.9819 C-10.9424 A-82.2888 F#10
N9830 G01 X3.4754 Y195.3132 Z-8.5722 C-10.0139 A-81.9836 F#10
N9840 G01 X3.1972 Y195.2958 Z-8.1809 C-9.0997 A-81.7131 F#10
N9850 G01 X2.9136 Y195.2775 Z-7.7929 C-8.1691 A-81.4667 F#10
N9860 G01 X2.6113 Y195.2571 Z-7.3907 C-7.1840 A-81.2356 F#10
N9870 G01 X2.2641 Y195.2336 Z-6.9434 C-6.0640 A-81.0088 F#10
N9880 G01 X1.9018 Y195.2098 Z-6.4941 C-4.9109 A-80.8169 F#10
N9890 G01 X1.5864 Y195.1898 Z-6.1178 C-3.9258 A-80.6849 F#10
N9900 G01 X1.3094 Y195.1728 Z-5.7977 C-3.0772 A-80.5957 F#10
N9910 G01 X1.0457 Y195.1572 Z-5.5031 C-2.2873 A-80.5341 F#10
N9920 G01 X0.7814 Y195.1422 Z-5.2170 C-1.5144 A-80.4947 F#10
N9930 G01 X0.5080 Y195.1273 Z-4.9309 C-0.7366 A-80.4784 F#10
N9940 G01 X0.1969 Y195.1117 Z-4.6172 C0.1202 A-80.4894 F#10
N9950 G01 X-0.1477 Y195.0959 Z-4.2845 C1.0320 A-80.5371 F#10
N9960 G01 X-0.4768 Y195.0824 Z-3.9814 C1.8639 A-80.6283 F#10
N9970 G01 X-0.7751 Y195.0717 Z-3.7188 C2.5840 A-80.7573 F#10
N9980 G01 X-1.0477 Y195.0626 Z-3.4886 C3.2136 A-80.9182 F#10
N9990 G01 X-1.1895 Y195.0586 Z-3.3729 C3.5296 A-81.0198 F#10
N10000 G01 X-1.3138 Y195.0553 Z-3.2736 C3.8004 A-81.1192 F#10
N10010 G01 X-1.4479 Y195.0516 Z-3.1682 C4.0866 A-81.2381 F#10
N10020 G01 X-1.7712 Y195.0433 Z-2.9209 C4.7515 A-81.5744 F#10
N10030 G01 X-1.9316 Y195.0394 Z-2.7965 C5.0729 A-81.7725 F#10
N10040 G01 X-2.0965 Y195.0351 Z-2.6606 C5.4029 A-82.0044 F#10
N10050 G01 X-2.2534 Y195.0305 Z-2.5144 C5.7253 A-82.2625 F#10
N10060 G01 X-2.3937 Y195.0260 Z-2.3634 C6.0269 A-82.5353 F#10
N10070 G01 X-2.5153 Y195.0229 Z-2.2343 C6.2803 A-82.7906 F#10
N10080 G01 X-2.7048 Y195.0181 Z-2.0600 C6.6390 A-83.1979 F#10
N10090 G01 X-2.8773 Y195.0140 Z-1.9327 C6.9391 A-83.5871 F#10
N10100 G01 X-3.0490 Y195.0102 Z-1.8308 C7.2258 A-83.9979 F#10
N10110 G01 X-3.2111 Y195.0071 Z-1.7467 C7.4899 A-84.4048 F#10
N10120 G01 X-3.3593 Y195.0043 Z-1.6759 C7.7352 A-84.8001 F#10
N10130 G01 X-3.5044 Y195.0014 Z-1.6114 C7.9747 A-85.2010 F#10
N10140 G01 X-3.6472 Y194.9985 Z-1.5511 C8.2120 A-85.6090 F#10
N10150 G01 X-3.7751 Y194.9959 Z-1.5003 C8.4262 A-85.9845 F#10
N10160 G01 X-3.8961 Y194.9934 Z-1.4686 C8.6245 A-86.3376 F#10
N10170 G01 X-4.0145 Y194.9910 Z-1.4533 C8.8166 A-86.6845 F#10
N10180 G01 X-4.1323 Y194.9886 Z-1.4527 C9.0087 A-87.0358 F#10
N10190 G01 X-4.2438 Y194.9863 Z-1.4658 C9.1938 A-87.3781 F#10
N10200 G01 X-4.3448 Y194.9842 Z-1.4896 C9.3662 A-87.7002 F#10
N10210 G01 X-4.4542 Y194.9820 Z-1.5290 C9.5605 A-88.0668 F#10
N10220 G01 X-4.5556 Y194.9800 Z-1.5778 C9.7492 A-88.4263 F#10
N10230 G01 X-4.6488 Y194.9782 Z-1.6348 C9.9326 A-88.7789 F#10
N10240 G01 X-4.7375 Y194.9765 Z-1.7007 C10.1179 A-89.1382 F#10
N10250 G01 X-4.8199 Y194.9752 Z-1.7758 C10.3042 A-89.5023 F#10
N10260 G01 X-4.8933 Y194.9747 Z-1.8580 C10.4872 A-89.8629 F#10
N10270 G01 X-4.9567 Y194.9746 Z-1.9443 C10.6636 A-90.2131 F#10
N10280 G01 X-5.0129 Y194.9748 Z-2.0380 C10.8417 A-90.5693 F#10
N10290 G01 X-5.0599 Y194.9753 Z-2.1383 C11.0199 A-90.9282 F#10
N10300 G01 X-5.0962 Y194.9762 Z-2.2403 C11.1914 A-91.2760 F#10
N10310 G01 X-5.1226 Y194.9782 Z-2.3449 C11.3593 A-91.6189 F#10
N10320 G01 X-5.1394 Y194.9806 Z-2.4533 C11.5264 A-91.9626 F#10
N10330 G01 X-5.1459 Y194.9833 Z-2.5638 C11.6910 A-92.3033 F#10
N10340 G01 X-5.1419 Y194.9863 Z-2.6753 C11.8526 A-92.6400 F#10
N10350 G01 X-5.1266 Y194.9897 Z-2.7873 C12.0115 A-92.9733 F#10
N10360 G01 X-5.1002 Y194.9940 Z-2.8989 C12.1674 A-93.3028 F#10
N10370 G01 X-5.0612 Y194.9988 Z-3.0127 C12.3249 A-93.6380 F#10
N10380 G01 X-5.0098 Y195.0039 Z-3.1246 C12.4794 A-93.9693 F#10
N10390 G01 X-4.9421 Y195.0094 Z-3.2343 C12.6333 A-94.3022 F#10
N10400 G01 X-4.8521 Y195.0161 Z-3.3469 C12.7953 A-94.6559 F#10
N10410 G01 X-4.7561 Y195.0233 Z-3.4577 C12.9500 A-94.9983 F#10
N10420 G01 X-4.6458 Y195.0312 Z-3.5761 C13.1094 A-95.3577 F#10
N10430 G01 X-4.4718 Y195.0423 Z-3.7333 C13.3158 A-95.8372 F#10
N10440 G01 X-4.2292 Y195.0566 Z-3.9177 C13.5415 A-96.3898 F#10
N10450 G01 X-3.8800 Y195.0792 Z-4.2286 C13.7991 A-97.0964 F#10
N10460 G01 X-3.5333 Y195.1019 Z-4.5590 C13.9671 A-97.6744 F#10
N10470 G01 X-3.0986 Y195.1304 Z-4.9805 C14.0586 A-98.2282 F#10
N10480 G01 X-2.6518 Y195.1585 Z-5.4254 C14.0348 A-98.6418 F#10
N10490 G01 X-2.1651 Y195.1881 Z-5.9232 C13.9002 A-98.9672 F#10
N10500 G01 X-1.6885 Y195.2161 Z-6.4276 C13.6895 A-99.2236 F#10
N10510 G01 X-1.2014 Y195.2439 Z-6.9572 C13.4244 A-99.4836 F#10
N10520 G01 X-0.6568 Y195.2731 Z-7.5697 C13.0354 A-99.7523 F#10
N10530 G01 X-0.0973 Y195.2983 Z-8.2232 C12.4923 A-99.9801 F#10
N10540 G01 X0.3115 Y195.3140 Z-8.7175 C11.9954 A-100.0949 F#10
N10550 G01 X0.6234 Y195.3243 Z-9.1045 C11.5604 A-100.1659 F#10
N10560 G01 X0.9156 Y195.3315 Z-9.4753 C11.1076 A-100.2248 F#10
N10570 G01 X1.2084 Y195.3361 Z-9.8544 C10.6095 A-100.2751 F#10
N10580 G01 X1.5922 Y195.3383 Z-10.3637 C9.8904 A-100.3268 F#10
N10590 G01 X1.9505 Y195.3351 Z-10.8511 C9.1515 A-100.3583 F#10
N10600 G01 X2.2410 Y195.3274 Z-11.2559 C8.5056 A-100.3703 F#10
N10610 G01 X2.5240 Y195.3166 Z-11.6582 C7.8373 A-100.3695 F#10
N10620 G01 X2.8264 Y195.3024 Z-12.0970 C7.0794 A-100.3528 F#10
N10630 G01 X3.1945 Y195.2808 Z-12.6438 C6.0980 A-100.3093 F#10
N10640 G01 X3.5693 Y195.2537 Z-13.2163 C5.0294 A-100.2348 F#10
N10650 G01 X3.8820 Y195.2270 Z-13.7057 C4.0871 A-100.1472 F#10
N10660 G01 X4.1646 Y195.2002 Z-14.1579 C3.1963 A-100.0461 F#10
N10670 G01 X4.4361 Y195.1719 Z-14.6029 C2.3045 A-99.9268 F#10
N10680 G01 X4.7000 Y195.1408 Z-15.0433 C1.4066 A-99.7894 F#10
N10690 G01 X4.9631 Y195.1066 Z-15.4913 C0.4782 A-99.6289 F#10
N10700 G01 X5.2194 Y195.0701 Z-15.9379 C-0.4615 A-99.4480 F#10
N10710 G01 X5.4756 Y195.0303 Z-16.3931 C-1.4337 A-99.2421 F#10
N10720 G01 X5.7483 Y194.9833 Z-16.8901 C-2.5113 A-98.9910 F#10
N10730 G01 X6.0342 Y194.9288 Z-17.4256 C-3.6903 A-98.6894 F#10
N10740 G01 X6.2237 Y194.8901 Z-17.7889 C-4.5004 A-98.4663 F#10
N10750 G01 X6.3762 Y194.8578 Z-18.0872 C-5.1754 A-98.2713 F#10
N10760 G01 X6.5213 Y194.8248 Z-18.3820 C-5.8634 A-98.0676 F#10
N10770 G01 X6.6515 Y194.7901 Z-18.6922 C-6.5925 A-97.8462 F#10
N10780 G01 X6.7251 Y194.7652 Z-18.9171 C-7.1278 A-97.6816 F#10
N10790 G01 X6.7917 Y194.7459 Z-19.0813 C-7.5566 A-97.5511 F#10
N10800 G01 X6.8591 Y194.7315 Z-19.1977 C-7.8973 A-97.4481 F#10
N10810 G01 X6.9284 Y194.7193 Z-19.2927 C-8.2054 A-97.3550 F#10
N10820 G01 X7.0099 Y194.7062 Z-19.3926 C-8.5528 A-97.2497 F#10
N10830 G01 X7.0923 Y194.6949 Z-19.4750 C-8.8750 A-97.1516 F#10
N10840 G01 X7.1785 Y194.6843 Z-19.5463 C-9.1912 A-97.0548 F#10
N10850 G01 X7.2797 Y194.6736 Z-19.6145 C-9.5430 A-96.9463 F#10
N10860 G01 X7.3762 Y194.6648 Z-19.6663 C-9.8637 A-96.8464 F#10
N10870 G01 X7.4691 Y194.6575 Z-19.7061 C-10.1632 A-96.7522 F#10
N10880 G01 X7.5758 Y194.6502 Z-19.7410 C-10.4991 A-96.6454 F#10
N10890 G01 X7.6893 Y194.6437 Z-19.7666 C-10.8499 A-96.5322 F#10
N10900 G01 X7.7965 Y194.6386 Z-19.7805 C-11.1771 A-96.4251 F#10
N10910 G01 X7.8954 Y194.6349 Z-19.7849 C-11.4777 A-96.3251 F#10
N10920 G01 X7.9939 Y194.6320 Z-19.7813 C-11.7768 A-96.2241 F#10
N10930 G01 X8.1016 Y194.6299 Z-19.7679 C-12.1051 A-96.1112 F#10
N10940 G01 X8.2070 Y194.6290 Z-19.7450 C-12.4297 A-95.9974 F#10
N10950 G01 X8.3058 Y194.6291 Z-19.7142 C-12.7390 A-95.8865 F#10
N10960 G01 X8.4063 Y194.6303 Z-19.6732 C-13.0601 A-95.7688 F#10
N10970 G01 X8.4977 Y194.6325 Z-19.6261 C-13.3602 A-95.6560 F#10
N10980 G01 X8.6132 Y194.6370 Z-19.5514 C-13.7551 A-95.5031 F#10
N10990 G01 X8.6976 Y194.6417 Z-19.4845 C-14.0576 A-95.3821 F#10
N11000 G01 X8.7790 Y194.6474 Z-19.4068 C-14.3666 A-95.2544 F#10
N11010 G01 X8.8518 Y194.6541 Z-19.3237 C-14.6622 A-95.1278 F#10
N11020 G01 X8.9232 Y194.6626 Z-19.2255 C-14.9776 A-94.9876 F#10
N11030 G01 X8.9801 Y194.6712 Z-19.1300 C-15.2567 A-94.8582 F#10
N11040 G01 X9.0267 Y194.6805 Z-19.0335 C-15.5160 A-94.7326 F#10
N11050 G01 X9.0659 Y194.6906 Z-18.9316 C-15.7701 A-94.6037 F#10
N11060 G01 X9.0955 Y194.7007 Z-18.8289 C-16.0085 A-94.4770 F#10
N11070 G01 X9.1164 Y194.7114 Z-18.7220 C-16.2398 A-94.3471 F#10
N11080 G01 X9.1273 Y194.7227 Z-18.6130 C-16.4604 A-94.2159 F#10
N11090 G01 X9.1251 Y194.7352 Z-18.4990 C-16.6765 A-94.0787 F#10
N11100 G01 X9.1089 Y194.7486 Z-18.3831 C-16.8848 A-93.9373 F#10
N11110 G01 X9.0777 Y194.7626 Z-18.2662 C-17.0876 A-93.7908 F#10
N11120 G01 X9.0289 Y194.7771 Z-18.1463 C-17.2904 A-93.6334 F#10
N11130 G01 X8.9719 Y194.7924 Z-18.0223 C-17.4945 A-93.4597 F#10
N11140 G01 X8.8998 Y194.8112 Z-17.8688 C-17.7155 A-93.2570 F#10
N11150 G01 X8.8074 Y194.8331 Z-17.6939 C-17.9496 A-93.0098 F#10
N11160 G01 X8.6873 Y194.8573 Z-17.4966 C-18.1830 A-92.7192 F#10
N11170 G01 X8.5281 Y194.8859 Z-17.2653 C-18.4217 A-92.3636 F#10
N11180 G01 X8.2968 Y194.9259 Z-16.9305 C-18.6899 A-91.8441 F#10
N11190 G01 X8.1779 Y194.9480 Z-16.7257 C-18.8049 A-91.5399 F#10
N11200 G01 X8.0687 Y194.9696 Z-16.5192 C-18.8924 A-91.2394 F#10
N11210 G01 X7.8548 Y195.0104 Z-16.0847 C-18.9949 A-90.6180 F#10
N11220 G01 X7.6219 Y195.0506 Z-15.6124 C-19.0056 A-89.9493 F#10
N11230 G01 X7.3812 Y195.0870 Z-15.1342 C-18.9247 A-89.2813 F#10
N11240 G01 X7.1212 Y195.1211 Z-14.6284 C-18.7576 A-88.5909 F#10
N11250 G01 X6.8386 Y195.1526 Z-14.0914 C-18.4849 A-87.8787 F#10
N11260 G01 X6.5803 Y195.1762 Z-13.6107 C-18.1490 A-87.2518 F#10
N11270 G01 X6.3537 Y195.1937 Z-13.1974 C-17.8007 A-86.7205 F#10
N11280 G01 X6.1440 Y195.2080 Z-12.8218 C-17.4367 A-86.2469 F#10
N11290 G01 X5.9361 Y195.2187 Z-12.4550 C-17.0288 A-85.8004 F#10
N11300 G01 X5.7238 Y195.2275 Z-12.0868 C-16.5667 A-85.3714 F#10
N11310 G01 X5.4764 Y195.2350 Z-11.6647 C-15.9734 A-84.9070 F#10
N11320 G01 X5.1643 Y195.2390 Z-11.1441 C-15.1572 A-84.3603 F#10
N11330 G01 X4.9306 Y195.2373 Z-10.7626 C-14.5038 A-83.9746 F#10
N11340 G01 X4.7030 Y195.2325 Z-10.3982 C-13.8371 A-83.6232 F#10
N11350 G01 X4.4665 Y195.2246 Z-10.0263 C-13.1187 A-83.2825 F#10
N11360 G01 X4.1519 Y195.2107 Z-9.5430 C-12.1326 A-82.8651 F#10
N11370 G01 X3.7665 Y195.1896 Z-8.9676 C-10.8892 A-82.4047 F#10
N11380 G01 X3.4833 Y195.1723 Z-8.5575 C-9.9626 A-82.1008 F#10
N11390 G01 X3.2059 Y195.1545 Z-8.1659 C-9.0515 A-81.8315 F#10
N11400 G01 X2.9233 Y195.1357 Z-7.7773 C-8.1256 A-81.5863 F#10
N11410 G01 X2.6218 Y195.1151 Z-7.3746 C-7.1469 A-81.3565 F#10
N11420 G01 X2.2753 Y195.0909 Z-6.9270 C-6.0354 A-81.1308 F#10
N11430 G01 X1.9139 Y195.0666 Z-6.4771 C-4.8911 A-80.9400 F#10
N11440 G01 X1.5994 Y195.0462 Z-6.1002 C-3.9134 A-80.8085 F#10
N11450 G01 X1.3229 Y195.0289 Z-5.7798 C-3.0713 A-80.7194 F#10
N11460 G01 X1.0598 Y195.0131 Z-5.4848 C-2.2874 A-80.6577 F#10
N11470 G01 X0.7961 Y194.9977 Z-5.1983 C-1.5202 A-80.6180 F#10
N11480 G01 X0.5233 Y194.9824 Z-4.9118 C-0.7482 A-80.6011 F#10
N11490 G01 X0.2129 Y194.9667 Z-4.5976 C0.1024 A-80.6112 F#10
N11500 G01 X-0.1311 Y194.9504 Z-4.2644 C1.0077 A-80.6576 F#10
N11510 G01 X-0.4596 Y194.9371 Z-3.9609 C1.8338 A-80.7469 F#10
N11520 G01 X-0.7573 Y194.9258 Z-3.6978 C2.5491 A-80.8736 F#10
N11530 G01 X-1.0296 Y194.9171 Z-3.4673 C3.1746 A-81.0320 F#10
N11540 G01 X-1.1711 Y194.9129 Z-3.3514 C3.4886 A-81.1319 F#10
N11550 G01 X-1.2951 Y194.9094 Z-3.2518 C3.7577 A-81.2298 F#10
N11560 G01 X-1.4290 Y194.9055 Z-3.1462 C4.0422 A-81.3468 F#10
N11570 G01 X-1.7550 Y194.8974 Z-2.8965 C4.7093 A-81.6814 F#10
N11580 G01 X-1.9152 Y194.8933 Z-2.7720 C5.0288 A-81.8770 F#10
N11590 G01 X-2.0801 Y194.8888 Z-2.6362 C5.3570 A-82.1058 F#10
N11600 G01 X-2.2369 Y194.8840 Z-2.4902 C5.6777 A-82.3606 F#10
N11610 G01 X-2.3773 Y194.8800 Z-2.3394 C5.9779 A-82.6299 F#10
N11620 G01 X-2.4987 Y194.8767 Z-2.2102 C6.2303 A-82.8819 F#10
N11630 G01 X-2.6875 Y194.8717 Z-2.0353 C6.5879 A-83.2840 F#10
N11640 G01 X-2.8595 Y194.8674 Z-1.9074 C6.8872 A-83.6682 F#10
N11650 G01 X-3.0309 Y194.8642 Z-1.8051 C7.1730 A-84.0736 F#10
N11660 G01 X-3.1930 Y194.8610 Z-1.7208 C7.4361 A-84.4746 F#10
N11670 G01 X-3.3417 Y194.8581 Z-1.6494 C7.6821 A-84.8661 F#10
N11680 G01 X-3.4875 Y194.8551 Z-1.5846 C7.9223 A-85.2626 F#10
N11690 G01 X-3.6308 Y194.8522 Z-1.5239 C8.1605 A-85.6658 F#10
N11700 G01 X-3.7594 Y194.8495 Z-1.4732 C8.3761 A-86.0369 F#10
N11710 G01 X-3.8809 Y194.8470 Z-1.4417 C8.5759 A-86.3859 F#10
N11720 G01 X-3.9998 Y194.8446 Z-1.4266 C8.7698 A-86.7290 F#10
N11730 G01 X-4.1181 Y194.8422 Z-1.4265 C8.9639 A-87.0764 F#10
N11740 G01 X-4.2301 Y194.8399 Z-1.4401 C9.1512 A-87.4150 F#10
N11750 G01 X-4.3314 Y194.8379 Z-1.4645 C9.3259 A-87.7337 F#10
N11760 G01 X-4.4415 Y194.8358 Z-1.5035 C9.5229 A-88.0966 F#10
N11770 G01 X-4.5437 Y194.8338 Z-1.5519 C9.7144 A-88.4527 F#10
N11780 G01 X-4.6377 Y194.8321 Z-1.6087 C9.9009 A-88.8022 F#10
N11790 G01 X-4.7270 Y194.8305 Z-1.6746 C10.0893 A-89.1584 F#10
N11800 G01 X-4.8102 Y194.8292 Z-1.7496 C10.2790 A-89.5198 F#10
N11810 G01 X-4.8842 Y194.8283 Z-1.8320 C10.4655 A-89.8779 F#10
N11820 G01 X-4.9481 Y194.8283 Z-1.9185 C10.6454 A-90.2260 F#10
N11830 G01 X-5.0048 Y194.8286 Z-2.0125 C10.8272 A-90.5804 F#10
N11840 G01 X-5.0522 Y194.8294 Z-2.1132 C11.0092 A-90.9378 F#10
N11850 G01 X-5.0889 Y194.8304 Z-2.2156 C11.1846 A-91.2846 F#10
N11860 G01 X-5.1154 Y194.8319 Z-2.3208 C11.3564 A-91.6270 F#10
N11870 G01 X-5.1324 Y194.8345 Z-2.4297 C11.5276 A-91.9704 F#10
N11880 G01 X-5.1391 Y194.8374 Z-2.5406 C11.6963 A-92.3115 F#10
N11890 G01 X-5.1349 Y194.8407 Z-2.6526 C11.8620 A-92.6492 F#10
N11900 G01 X-5.1198 Y194.8443 Z-2.7651 C12.0250 A-92.9839 F#10
N11910 G01 X-5.0934 Y194.8482 Z-2.8773 C12.1853 A-93.3156 F#10
N11920 G01 X-5.0543 Y194.8533 Z-2.9916 C12.3472 A-93.6538 F#10
N11930 G01 X-5.0027 Y194.8586 Z-3.1040 C12.5062 A-93.9889 F#10
N11940 G01 X-4.9346 Y194.8644 Z-3.2142 C12.6648 A-94.3267 F#10
N11950 G01 X-4.8441 Y194.8710 Z-3.3271 C12.8319 A-94.6870 F#10
N11960 G01 X-4.7477 Y194.8780 Z-3.4384 C12.9915 A-95.0365 F#10
N11970 G01 X-4.6367 Y194.8863 Z-3.5574 C13.1555 A-95.4030 F#10
N11980 G01 X-4.4631 Y194.8978 Z-3.7141 C13.3659 A-95.8880 F#10
N11990 G01 X-4.2209 Y194.9119 Z-3.8987 C13.5938 A-96.4434 F#10
N12000 G01 X-3.8730 Y194.9350 Z-4.2104 C13.8482 A-97.1451 F#10
N12010 G01 X-3.5275 Y194.9578 Z-4.5415 C14.0069 A-97.7103 F#10
N12020 G01 X-3.0944 Y194.9868 Z-4.9639 C14.0806 A-98.2407 F#10
N12030 G01 X-2.6490 Y195.0153 Z-5.4096 C14.0348 A-98.6257 F#10
N12040 G01 X-2.1646 Y195.0452 Z-5.9090 C13.8762 A-98.9216 F#10
N12050 G01 X-1.6893 Y195.0736 Z-6.4138 C13.6472 A-99.1569 F#10
N12060 G01 X-1.2039 Y195.1022 Z-6.9441 C13.3737 A-99.4105 F#10
N12070 G01 X-0.6610 Y195.1318 Z-7.5570 C12.9828 A-99.6816 F#10
N12080 G01 X-0.1032 Y195.1580 Z-8.2110 C12.4390 A-99.9138 F#10
N12090 G01 X0.3043 Y195.1745 Z-8.7056 C11.9410 A-100.0326 F#10
N12100 G01 X0.6150 Y195.1854 Z-9.0929 C11.5049 A-100.1072 F#10
N12110 G01 X0.9063 Y195.1927 Z-9.4638 C11.0510 A-100.1698 F#10
N12120 G01 X1.1980 Y195.1979 Z-9.8432 C10.5516 A-100.2242 F#10
N12130 G01 X1.5805 Y195.2006 Z-10.3527 C9.8306 A-100.2816 F#10
N12140 G01 X1.9376 Y195.1978 Z-10.8403 C9.0897 A-100.3189 F#10
N12150 G01 X2.2271 Y195.1905 Z-11.2452 C8.4420 A-100.3360 F#10
N12160 G01 X2.5093 Y195.1799 Z-11.6474 C7.7721 A-100.3403 F#10
N12170 G01 X2.8107 Y195.1663 Z-12.0863 C7.0121 A-100.3292 F#10
N12180 G01 X3.1774 Y195.1446 Z-12.6332 C6.0284 A-100.2929 F#10
N12190 G01 X3.5504 Y195.1174 Z-13.2061 C4.9575 A-100.2259 F#10
N12200 G01 X3.8616 Y195.0909 Z-13.6958 C4.0132 A-100.1449 F#10
N12210 G01 X4.1425 Y195.0643 Z-14.1485 C3.1209 A-100.0496 F#10
N12220 G01 X4.4129 Y195.0359 Z-14.5935 C2.2277 A-99.9361 F#10
N12230 G01 X4.6760 Y195.0045 Z-15.0339 C1.3287 A-99.8042 F#10
N12240 G01 X4.9376 Y194.9702 Z-15.4822 C0.3993 A-99.6493 F#10
N12250 G01 X5.1927 Y194.9337 Z-15.9288 C-0.5409 A-99.4737 F#10
N12260 G01 X5.4472 Y194.8936 Z-16.3845 C-1.5132 A-99.2731 F#10
N12270 G01 X5.7180 Y194.8458 Z-16.8818 C-2.5904 A-99.0274 F#10
N12280 G01 X6.0027 Y194.7910 Z-17.4174 C-3.7683 A-98.7314 F#10
N12290 G01 X6.1912 Y194.7521 Z-17.7807 C-4.5772 A-98.5117 F#10
N12300 G01 X6.3426 Y194.7192 Z-18.0792 C-5.2516 A-98.3194 F#10
N12310 G01 X6.4865 Y194.6863 Z-18.3743 C-5.9418 A-98.1178 F#10
N12320 G01 X6.6156 Y194.6509 Z-18.6845 C-6.6759 A-97.8981 F#10
N12330 G01 X6.6886 Y194.6261 Z-18.9094 C-7.2163 A-97.7345 F#10
N12340 G01 X6.7543 Y194.6064 Z-19.0741 C-7.6506 A-97.6046 F#10
N12350 G01 X6.8210 Y194.5917 Z-19.1916 C-7.9975 A-97.5016 F#10
N12360 G01 X6.8902 Y194.5792 Z-19.2874 C-8.3115 A-97.4084 F#10
N12370 G01 X6.9714 Y194.5658 Z-19.3883 C-8.6658 A-97.3031 F#10
N12380 G01 X7.0536 Y194.5543 Z-19.4717 C-8.9946 A-97.2049 F#10
N12390 G01 X7.1399 Y194.5438 Z-19.5436 C-9.3175 A-97.1079 F#10
N12400 G01 X7.2413 Y194.5329 Z-19.6127 C-9.6768 A-96.9992 F#10
N12410 G01 X7.3379 Y194.5239 Z-19.6652 C-10.0044 A-96.8991 F#10
N12420 G01 X7.4310 Y194.5164 Z-19.7057 C-10.3103 A-96.8047 F#10
N12430 G01 X7.5381 Y194.5090 Z-19.7411 C-10.6536 A-96.6975 F#10
N12440 G01 X7.6520 Y194.5024 Z-19.7672 C-11.0120 A-96.5841 F#10
N12450 G01 X7.7596 Y194.4974 Z-19.7815 C-11.3463 A-96.4766 F#10
N12460 G01 X7.8590 Y194.4936 Z-19.7862 C-11.6534 A-96.3764 F#10
N12470 G01 X7.9579 Y194.4908 Z-19.7829 C-11.9588 A-96.2751 F#10
N12480 G01 X8.0661 Y194.4887 Z-19.7697 C-12.2940 A-96.1618 F#10
N12490 G01 X8.1721 Y194.4878 Z-19.7471 C-12.6252 A-96.0475 F#10
N12500 G01 X8.2715 Y194.4880 Z-19.7164 C-12.9405 A-95.9363 F#10
N12510 G01 X8.3725 Y194.4894 Z-19.6754 C-13.2677 A-95.8182 F#10
N12520 G01 X8.4644 Y194.4917 Z-19.6284 C-13.5733 A-95.7050 F#10
N12530 G01 X8.5807 Y194.4964 Z-19.5536 C-13.9751 A-95.5515 F#10
N12540 G01 X8.6654 Y194.5011 Z-19.4863 C-14.2824 A-95.4301 F#10
N12550 G01 X8.7473 Y194.5070 Z-19.4083 C-14.5960 A-95.3019 F#10
N12560 G01 X8.8205 Y194.5140 Z-19.3249 C-14.8955 A-95.1749 F#10
N12570 G01 X8.8921 Y194.5228 Z-19.2261 C-15.2147 A-95.0342 F#10
N12580 G01 X8.9493 Y194.5318 Z-19.1301 C-15.4964 A-94.9043 F#10
N12590 G01 X8.9960 Y194.5413 Z-19.0331 C-15.7577 A-94.7782 F#10
N12600 G01 X9.0354 Y194.5515 Z-18.9307 C-16.0131 A-94.6490 F#10
N12610 G01 X9.0650 Y194.5617 Z-18.8273 C-16.2521 A-94.5218 F#10
N12620 G01 X9.0862 Y194.5727 Z-18.7199 C-16.4832 A-94.3915 F#10
N12630 G01 X9.0980 Y194.5843 Z-18.6105 C-16.7028 A-94.2598 F#10
N12640 G01 X9.0976 Y194.5970 Z-18.4959 C-16.9170 A-94.1222 F#10
N12650 G01 X9.0832 Y194.6107 Z-18.3793 C-17.1228 A-93.9805 F#10
N12660 G01 X9.0534 Y194.6244 Z-18.2614 C-17.3224 A-93.8334 F#10
N12670 G01 X9.0059 Y194.6392 Z-18.1403 C-17.5215 A-93.6756 F#10
N12680 G01 X8.9485 Y194.6550 Z-18.0136 C-17.7226 A-93.5003 F#10
N12690 G01 X8.8776 Y194.6740 Z-17.8615 C-17.9364 A-93.2989 F#10
N12700 G01 X8.7855 Y194.6960 Z-17.6867 C-18.1631 A-93.0523 F#10
N12710 G01 X8.6657 Y194.7202 Z-17.4894 C-18.3877 A-92.7624 F#10
N12720 G01 X8.5080 Y194.7492 Z-17.2574 C-18.6145 A-92.4079 F#10
N12730 G01 X8.2788 Y194.7893 Z-16.9216 C-18.8636 A-91.8904 F#10
N12740 G01 X8.1609 Y194.8117 Z-16.7164 C-18.9665 A-91.5876 F#10
N12750 G01 X8.0531 Y194.8333 Z-16.5094 C-19.0417 A-91.2885 F#10
N12760 G01 X7.8420 Y194.8742 Z-16.0775 C-19.1167 A-90.6746 F#10
N12770 G01 X7.6107 Y194.9145 Z-15.6046 C-19.0985 A-90.0107 F#10
N12780 G01 X7.3718 Y194.9509 Z-15.1258 C-18.9889 A-89.3486 F#10
N12790 G01 X7.1133 Y194.9850 Z-14.6194 C-18.7939 A-88.6659 F#10
N12800 G01 X6.8323 Y195.0164 Z-14.0817 C-18.4975 A-87.9628 F#10
N12810 G01 X6.5753 Y195.0403 Z-13.6004 C-18.1445 A-87.3429 F#10
N12820 G01 X6.3497 Y195.0577 Z-13.1866 C-17.7854 A-86.8159 F#10
N12830 G01 X6.1409 Y195.0716 Z-12.8106 C-17.4148 A-86.3448 F#10
N12840 G01 X5.9339 Y195.0825 Z-12.4434 C-17.0012 A-85.9005 F#10
N12850 G01 X5.7226 Y195.0910 Z-12.0746 C-16.5337 A-85.4734 F#10
N12860 G01 X5.4760 Y195.0982 Z-11.6522 C-15.9347 A-85.0108 F#10
N12870 G01 X5.1651 Y195.1019 Z-11.1309 C-15.1123 A-84.4663 F#10
N12880 G01 X4.9322 Y195.0998 Z-10.7490 C-14.4549 A-84.0823 F#10
N12890 G01 X4.7055 Y195.0944 Z-10.3841 C-13.7852 A-83.7323 F#10
N12900 G01 X4.4698 Y195.0863 Z-10.0118 C-13.0644 A-83.3931 F#10
N12910 G01 X4.1565 Y195.0719 Z-9.5277 C-12.0764 A-82.9774 F#10
N12920 G01 X3.7720 Y195.0500 Z-8.9518 C-10.8329 A-82.5190 F#10
N12930 G01 X3.4896 Y195.0322 Z-8.5411 C-9.9078 A-82.2164 F#10
N12940 G01 X3.2131 Y195.0138 Z-8.1488 C-8.9995 A-81.9484 F#10
N12950 G01 X2.9312 Y194.9948 Z-7.7598 C-8.0778 A-81.7044 F#10
N12960 G01 X2.6304 Y194.9733 Z-7.3566 C-7.1052 A-81.4759 F#10
N12970 G01 X2.2849 Y194.9487 Z-6.9082 C-6.0017 A-81.2515 F#10
N12980 G01 X1.9242 Y194.9238 Z-6.4577 C-4.8657 A-81.0620 F#10
N12990 G01 X1.6104 Y194.9029 Z-6.0801 C-3.8953 A-80.9311 F#10
N13000 G01 X1.3344 Y194.8851 Z-5.7594 C-3.0593 A-80.8423 F#10
N13010 G01 X1.0718 Y194.8688 Z-5.4638 C-2.2812 A-80.7807 F#10
N13020 G01 X0.8086 Y194.8532 Z-5.1769 C-1.5197 A-80.7409 F#10
N13030 G01 X0.5363 Y194.8379 Z-4.8899 C-0.7532 A-80.7237 F#10
N13040 G01 X0.2264 Y194.8213 Z-4.5751 C0.0913 A-80.7330 F#10
N13050 G01 X-0.1171 Y194.8053 Z-4.2415 C0.9903 A-80.7784 F#10
N13060 G01 X-0.4451 Y194.7911 Z-3.9374 C1.8106 A-80.8664 F#10
N13070 G01 X-0.7425 Y194.7803 Z-3.6739 C2.5211 A-80.9915 F#10
N13080 G01 X-1.0144 Y194.7707 Z-3.4430 C3.1425 A-81.1478 F#10
N13090 G01 X-1.1557 Y194.7668 Z-3.3269 C3.4546 A-81.2464 F#10
N13100 G01 X-1.2796 Y194.7633 Z-3.2272 C3.7220 A-81.3431 F#10
N13110 G01 X-1.4135 Y194.7597 Z-3.1215 C4.0047 A-81.4587 F#10
N13120 G01 X-1.7386 Y194.7510 Z-2.8716 C4.6672 A-81.7885 F#10
N13130 G01 X-1.8988 Y194.7470 Z-2.7472 C4.9848 A-81.9814 F#10
N13140 G01 X-2.0638 Y194.7426 Z-2.6116 C5.3111 A-82.2073 F#10
N13150 G01 X-2.2207 Y194.7380 Z-2.4658 C5.6300 A-82.4586 F#10
N13160 G01 X-2.3611 Y194.7334 Z-2.3150 C5.9289 A-82.7244 F#10
N13170 G01 X-2.4822 Y194.7302 Z-2.1857 C6.1803 A-82.9732 F#10
N13180 G01 X-2.6705 Y194.7255 Z-2.0105 C6.5368 A-83.3702 F#10
N13190 G01 X-2.8420 Y194.7213 Z-1.8820 C6.8352 A-83.7494 F#10
N13200 G01 X-3.0129 Y194.7176 Z-1.7792 C7.1203 A-84.1494 F#10
N13210 G01 X-3.1750 Y194.7146 Z-1.6946 C7.3824 A-84.5444 F#10
N13220 G01 X-3.3244 Y194.7117 Z-1.6228 C7.6290 A-84.9320 F#10
N13230 G01 X-3.4708 Y194.7089 Z-1.5576 C7.8698 A-85.3241 F#10
N13240 G01 X-3.6148 Y194.7060 Z-1.4967 C8.1091 A-85.7226 F#10
N13250 G01 X-3.7441 Y194.7034 Z-1.4462 C8.3259 A-86.0893 F#10
N13260 G01 X-3.8662 Y194.7009 Z-1.4149 C8.5272 A-86.4343 F#10
N13270 G01 X-3.9857 Y194.6985 Z-1.4002 C8.7230 A-86.7734 F#10
N13280 G01 X-4.1045 Y194.6961 Z-1.4006 C8.9192 A-87.1169 F#10
N13290 G01 X-4.2169 Y194.6938 Z-1.4148 C9.1086 A-87.4518 F#10
N13300 G01 X-4.3186 Y194.6918 Z-1.4396 C9.2855 A-87.7672 F#10
N13310 G01 X-4.4294 Y194.6896 Z-1.4783 C9.4853 A-88.1264 F#10
N13320 G01 X-4.5324 Y194.6876 Z-1.5265 C9.6797 A-88.4791 F#10
N13330 G01 X-4.6271 Y194.6858 Z-1.5830 C9.8691 A-88.8254 F#10
N13340 G01 X-4.7173 Y194.6841 Z-1.6487 C10.0608 A-89.1787 F#10
N13350 G01 X-4.8011 Y194.6827 Z-1.7239 C10.2538 A-89.5373 F#10
N13360 G01 X-4.8758 Y194.6823 Z-1.8063 C10.4438 A-89.8929 F#10
N13370 G01 X-4.9404 Y194.6822 Z-1.8930 C10.6272 A-90.2389 F#10
N13380 G01 X-4.9976 Y194.6824 Z-1.9873 C10.8127 A-90.5915 F#10
N13390 G01 X-5.0457 Y194.6830 Z-2.0883 C10.9986 A-90.9475 F#10
N13400 G01 X-5.0825 Y194.6840 Z-2.1912 C11.1778 A-91.2932 F#10
N13410 G01 X-5.1095 Y194.6861 Z-2.2968 C11.3535 A-91.6350 F#10
N13420 G01 X-5.1268 Y194.6886 Z-2.4062 C11.5287 A-91.9783 F#10
N13430 G01 X-5.1336 Y194.6914 Z-2.5177 C11.7015 A-92.3198 F#10
N13440 G01 X-5.1294 Y194.6946 Z-2.6302 C11.8714 A-92.6583 F#10
N13450 G01 X-5.1141 Y194.6983 Z-2.7432 C12.0386 A-92.9946 F#10
N13460 G01 X-5.0875 Y194.7028 Z-2.8559 C12.2032 A-93.3284 F#10
N13470 G01 X-5.0481 Y194.7078 Z-2.9707 C12.3696 A-93.6696 F#10
N13480 G01 X-4.9960 Y194.7131 Z-3.0835 C12.5331 A-94.0086 F#10
N13490 G01 X-4.9272 Y194.7188 Z-3.1940 C12.6963 A-94.3513 F#10
N13500 G01 X-4.8363 Y194.7259 Z-3.3074 C12.8685 A-94.7181 F#10
N13510 G01 X-4.7395 Y194.7334 Z-3.4193 C13.0329 A-95.0748 F#10
N13520 G01 X-4.6278 Y194.7415 Z-3.5388 C13.2016 A-95.4483 F#10
N13530 G01 X-4.4543 Y194.7527 Z-3.6949 C13.4160 A-95.9388 F#10
N13540 G01 X-4.2127 Y194.7677 Z-3.8797 C13.6461 A-96.4970 F#10
N13550 G01 X-3.8661 Y194.7906 Z-4.1922 C13.8973 A-97.1938 F#10
N13560 G01 X-3.5217 Y194.8141 Z-4.5239 C14.0467 A-97.7463 F#10
N13570 G01 X-3.0901 Y194.8430 Z-4.9472 C14.1027 A-98.2532 F#10
N13580 G01 X-2.6466 Y194.8719 Z-5.3941 C14.0347 A-98.6097 F#10
N13590 G01 X-2.1639 Y194.9023 Z-5.8944 C13.8523 A-98.8759 F#10
N13600 G01 X-1.6904 Y194.9313 Z-6.4002 C13.6049 A-99.0902 F#10
N13610 G01 X-1.2066 Y194.9604 Z-6.9311 C13.3231 A-99.3374 F#10
N13620 G01 X-0.6654 Y194.9909 Z-7.5445 C12.9301 A-99.6110 F#10
N13630 G01 X-0.1094 Y195.0180 Z-8.1988 C12.3856 A-99.8475 F#10
N13640 G01 X0.2968 Y195.0349 Z-8.6937 C11.8865 A-99.9703 F#10
N13650 G01 X0.6067 Y195.0460 Z-9.0811 C11.4494 A-100.0485 F#10
N13660 G01 X0.8970 Y195.0544 Z-9.4522 C10.9944 A-100.1148 F#10
N13670 G01 X1.1877 Y195.0597 Z-9.8317 C10.4937 A-100.1732 F#10
N13680 G01 X1.5691 Y195.0628 Z-10.3413 C9.7707 A-100.2365 F#10
N13690 G01 X1.9248 Y195.0609 Z-10.8291 C9.0279 A-100.2796 F#10
N13700 G01 X2.2132 Y195.0538 Z-11.2342 C8.3785 A-100.3016 F#10
N13710 G01 X2.4941 Y195.0433 Z-11.6367 C7.7068 A-100.3110 F#10
N13720 G01 X2.7942 Y195.0294 Z-12.0759 C6.9449 A-100.3056 F#10
N13730 G01 X3.1593 Y195.0080 Z-12.6231 C5.9588 A-100.2764 F#10
N13740 G01 X3.5306 Y194.9813 Z-13.1963 C4.8855 A-100.2171 F#10
N13750 G01 X3.8406 Y194.9554 Z-13.6860 C3.9394 A-100.1425 F#10
N13760 G01 X4.1205 Y194.9282 Z-14.1387 C3.0455 A-100.0531 F#10
N13770 G01 X4.3898 Y194.8994 Z-14.5838 C2.1508 A-99.9453 F#10
N13780 G01 X4.6512 Y194.8686 Z-15.0246 C1.2507 A-99.8191 F#10
N13790 G01 X4.9112 Y194.8342 Z-15.4733 C0.3204 A-99.6697 F#10
N13800 G01 X5.1651 Y194.7970 Z-15.9200 C-0.6204 A-99.4994 F#10
N13810 G01 X5.4182 Y194.7562 Z-16.3758 C-1.5928 A-99.3041 F#10
N13820 G01 X5.6879 Y194.7085 Z-16.8732 C-2.6696 A-99.0639 F#10
N13830 G01 X5.9704 Y194.6534 Z-17.4092 C-3.8464 A-98.7734 F#10
N13840 G01 X6.1575 Y194.6141 Z-17.7729 C-4.6540 A-98.5572 F#10
N13850 G01 X6.3080 Y194.5809 Z-18.0714 C-5.3278 A-98.3675 F#10
N13860 G01 X6.4512 Y194.5474 Z-18.3665 C-6.0202 A-98.1681 F#10
N13870 G01 X6.5799 Y194.5121 Z-18.6765 C-6.7593 A-97.9501 F#10
N13880 G01 X6.6517 Y194.4863 Z-18.9014 C-7.3048 A-97.7875 F#10
N13890 G01 X6.7164 Y194.4670 Z-19.0667 C-7.7447 A-97.6581 F#10
N13900 G01 X6.7825 Y194.4524 Z-19.1853 C-8.0977 A-97.5551 F#10
N13910 G01 X6.8516 Y194.4395 Z-19.2817 C-8.4176 A-97.4619 F#10
N13920 G01 X6.9324 Y194.4257 Z-19.3837 C-8.7788 A-97.3564 F#10
N13930 G01 X7.0144 Y194.4138 Z-19.4679 C-9.1142 A-97.2581 F#10
N13940 G01 X7.1006 Y194.4031 Z-19.5407 C-9.4437 A-97.1610 F#10
N13950 G01 X7.2021 Y194.3922 Z-19.6106 C-9.8105 A-97.0520 F#10
N13960 G01 X7.2989 Y194.3832 Z-19.6638 C-10.1451 A-96.9517 F#10
N13970 G01 X7.3922 Y194.3757 Z-19.7049 C-10.4575 A-96.8571 F#10
N13980 G01 X7.4995 Y194.3683 Z-19.7410 C-10.8081 A-96.7497 F#10
N13990 G01 X7.6138 Y194.3615 Z-19.7676 C-11.1742 A-96.6359 F#10
N14000 G01 X7.7217 Y194.3564 Z-19.7824 C-11.5156 A-96.5282 F#10
N14010 G01 X7.8215 Y194.3526 Z-19.7874 C-11.8290 A-96.4276 F#10
N14020 G01 X7.9208 Y194.3498 Z-19.7843 C-12.1408 A-96.3260 F#10
N14030 G01 X8.0295 Y194.3478 Z-19.7714 C-12.4828 A-96.2123 F#10
N14040 G01 X8.1359 Y194.3470 Z-19.7489 C-12.8206 A-96.0977 F#10
N14050 G01 X8.2358 Y194.3473 Z-19.7183 C-13.1420 A-95.9861 F#10
N14060 G01 X8.3373 Y194.3486 Z-19.6772 C-13.4753 A-95.8676 F#10
N14070 G01 X8.4296 Y194.3510 Z-19.6301 C-13.7864 A-95.7540 F#10
N14080 G01 X8.5465 Y194.3557 Z-19.5551 C-14.1950 A-95.6000 F#10
N14090 G01 X8.6318 Y194.3606 Z-19.4878 C-14.5072 A-95.4781 F#10
N14100 G01 X8.7142 Y194.3669 Z-19.4097 C-14.8254 A-95.3494 F#10
N14110 G01 X8.7878 Y194.3742 Z-19.3260 C-15.1288 A-95.2220 F#10
N14120 G01 X8.8601 Y194.3834 Z-19.2270 C-15.4517 A-95.0807 F#10
N14130 G01 X8.9177 Y194.3923 Z-19.1307 C-15.7361 A-94.9504 F#10
N14140 G01 X8.9650 Y194.4016 Z-19.0334 C-15.9994 A-94.8239 F#10
N14150 G01 X9.0044 Y194.4119 Z-18.9304 C-16.2561 A-94.6942 F#10
N14160 G01 X9.0344 Y194.4226 Z-18.8267 C-16.4957 A-94.5666 F#10
N14170 G01 X9.0553 Y194.4342 Z-18.7187 C-16.7266 A-94.4359 F#10
N14180 G01 X9.0671 Y194.4463 Z-18.6087 C-16.9453 A-94.3038 F#10
N14190 G01 X9.0685 Y194.4587 Z-18.4936 C-17.1576 A-94.1657 F#10
N14200 G01 X9.0557 Y194.4720 Z-18.3762 C-17.3607 A-94.0236 F#10
N14210 G01 X9.0274 Y194.4862 Z-18.2575 C-17.5572 A-93.8761 F#10
N14220 G01 X8.9810 Y194.5016 Z-18.1354 C-17.7527 A-93.7179 F#10
N14230 G01 X8.9247 Y194.5178 Z-18.0099 C-17.9507 A-93.5410 F#10
N14240 G01 X8.8537 Y194.5366 Z-17.8554 C-18.1573 A-93.3408 F#10
N14250 G01 X8.7623 Y194.5584 Z-17.6803 C-18.3766 A-93.0947 F#10
N14260 G01 X8.6439 Y194.5835 Z-17.4824 C-18.5924 A-92.8057 F#10
N14270 G01 X8.4871 Y194.6125 Z-17.2501 C-18.8073 A-92.4522 F#10
N14280 G01 X8.2598 Y194.6529 Z-16.9134 C-19.0373 A-91.9366 F#10
N14290 G01 X8.1433 Y194.6754 Z-16.7077 C-19.1282 A-91.6352 F#10
N14300 G01 X8.0360 Y194.6966 Z-16.5005 C-19.1910 A-91.3376 F#10
N14310 G01 X7.8250 Y194.7383 Z-16.0632 C-19.2391 A-90.7207 F#10
N14320 G01 X7.5957 Y194.7791 Z-15.5899 C-19.1903 A-90.0620 F#10
N14330 G01 X7.3587 Y194.8159 Z-15.1106 C-19.0507 A-89.4064 F#10
N14340 G01 X7.1019 Y194.8498 Z-14.6037 C-18.8269 A-88.7319 F#10
N14350 G01 X6.8226 Y194.8808 Z-14.0656 C-18.5058 A-88.0385 F#10
N14360 G01 X6.5669 Y194.9043 Z-13.5838 C-18.1349 A-87.4259 F#10
N14370 G01 X6.3425 Y194.9221 Z-13.1697 C-17.7644 A-86.9036 F#10
N14380 G01 X6.1347 Y194.9358 Z-12.7934 C-17.3868 A-86.4355 F#10
N14390 G01 X5.9285 Y194.9466 Z-12.4259 C-16.9670 A-85.9937 F#10
N14400 G01 X5.7181 Y194.9554 Z-12.0570 C-16.4936 A-85.5690 F#10
N14410 G01 X5.4726 Y194.9621 Z-11.6341 C-15.8883 A-85.1089 F#10
N14420 G01 X5.1630 Y194.9652 Z-11.1125 C-15.0592 A-84.5672 F#10
N14430 G01 X4.9310 Y194.9625 Z-10.7303 C-14.3977 A-84.1851 F#10
N14440 G01 X4.7052 Y194.9568 Z-10.3650 C-13.7247 A-83.8370 F#10
N14450 G01 X4.4703 Y194.9481 Z-9.9924 C-13.0015 A-83.4995 F#10
N14460 G01 X4.1579 Y194.9331 Z-9.5081 C-12.0116 A-83.0861 F#10
N14470 G01 X3.7748 Y194.9106 Z-8.9315 C-10.7682 A-82.6300 F#10
N14480 G01 X3.4934 Y194.8924 Z-8.5205 C-9.8449 A-82.3292 F#10
N14490 G01 X3.2176 Y194.8733 Z-8.1279 C-8.9396 A-82.0628 F#10
N14500 G01 X2.9366 Y194.8539 Z-7.7385 C-8.0225 A-81.8204 F#10
N14510 G01 X2.6365 Y194.8319 Z-7.3349 C-7.0564 A-81.5934 F#10
N14520 G01 X2.2918 Y194.8067 Z-6.8861 C-5.9613 A-81.3706 F#10
N14530 G01 X1.9320 Y194.7812 Z-6.4352 C-4.8342 A-81.1826 F#10
N14540 G01 X1.6188 Y194.7598 Z-6.0572 C-3.8713 A-81.0527 F#10
N14550 G01 X1.3435 Y194.7416 Z-5.7361 C-3.0419 A-80.9643 F#10
N14560 G01 X1.0813 Y194.7249 Z-5.4403 C-2.2699 A-80.9030 F#10
N14570 G01 X0.8187 Y194.7091 Z-5.1530 C-1.5143 A-80.8631 F#10
N14580 G01 X0.5468 Y194.6933 Z-4.8657 C-0.7539 A-80.8457 F#10
N14590 G01 X0.2375 Y194.6766 Z-4.5506 C0.0842 A-80.8545 F#10
N14600 G01 X-0.1054 Y194.6601 Z-4.2166 C0.9763 A-80.8991 F#10
N14610 G01 X-0.4329 Y194.6458 Z-3.9123 C1.7906 A-80.9859 F#10
N14620 G01 X-0.7299 Y194.6345 Z-3.6484 C2.4959 A-81.1094 F#10
N14630 G01 X-1.0014 Y194.6252 Z-3.4174 C3.1129 A-81.2637 F#10
N14640 G01 X-1.1426 Y194.6210 Z-3.3012 C3.4228 A-81.3612 F#10
N14650 G01 X-1.2663 Y194.6175 Z-3.2014 C3.6884 A-81.4566 F#10
N14660 G01 X-1.4000 Y194.6136 Z-3.0955 C3.9691 A-81.5708 F#10
N14670 G01 X-1.7238 Y194.6049 Z-2.8464 C4.6250 A-81.8955 F#10
N14680 G01 X-1.8839 Y194.6008 Z-2.7218 C4.9407 A-82.0859 F#10
N14690 G01 X-2.0488 Y194.5963 Z-2.5863 C5.2652 A-82.3087 F#10
N14700 G01 X-2.2059 Y194.5916 Z-2.4407 C5.5824 A-82.5566 F#10
N14710 G01 X-2.3464 Y194.5871 Z-2.2902 C5.8799 A-82.8190 F#10
N14720 G01 X-2.4674 Y194.5839 Z-2.1609 C6.1304 A-83.0645 F#10
N14730 G01 X-2.6554 Y194.5790 Z-1.9854 C6.4857 A-83.4563 F#10
N14740 G01 X-2.8264 Y194.5748 Z-1.8564 C6.7833 A-83.8305 F#10
N14750 G01 X-2.9971 Y194.5713 Z-1.7532 C7.0675 A-84.2251 F#10
N14760 G01 X-3.1593 Y194.5683 Z-1.6685 C7.3292 A-84.6151 F#10
N14770 G01 X-3.3091 Y194.5654 Z-1.5963 C7.5760 A-84.9980 F#10
N14780 G01 X-3.4561 Y194.5625 Z-1.5307 C7.8174 A-85.3856 F#10
N14790 G01 X-3.6006 Y194.5597 Z-1.4695 C8.0572 A-85.7804 F#10
N14800 G01 X-3.7305 Y194.5570 Z-1.4192 C8.2744 A-86.1443 F#10
N14810 G01 X-3.8532 Y194.5545 Z-1.3884 C8.4759 A-86.4871 F#10
N14820 G01 X-3.9732 Y194.5521 Z-1.3742 C8.6716 A-86.8244 F#10
N14830 G01 X-4.0925 Y194.5497 Z-1.3753 C8.8676 A-87.1664 F#10
N14840 G01 X-4.2052 Y194.5475 Z-1.3902 C9.0569 A-87.5002 F#10
N14850 G01 X-4.3076 Y194.5455 Z-1.4144 C9.2335 A-87.8147 F#10
N14860 G01 X-4.4191 Y194.5433 Z-1.4527 C9.4327 A-88.1732 F#10
N14870 G01 X-4.5227 Y194.5413 Z-1.5006 C9.6266 A-88.5253 F#10
N14880 G01 X-4.6182 Y194.5394 Z-1.5568 C9.8154 A-88.8712 F#10
N14890 G01 X-4.7091 Y194.5378 Z-1.6224 C10.0064 A-89.2242 F#10
N14900 G01 X-4.7936 Y194.5363 Z-1.6976 C10.1987 A-89.5827 F#10
N14910 G01 X-4.8688 Y194.5358 Z-1.7802 C10.3878 A-89.9383 F#10
N14920 G01 X-4.9340 Y194.5358 Z-1.8670 C10.5704 A-90.2843 F#10
N14930 G01 X-4.9917 Y194.5361 Z-1.9616 C10.7550 A-90.6370 F#10
N14940 G01 X-5.0401 Y194.5367 Z-2.0629 C10.9398 A-90.9931 F#10
N14950 G01 X-5.0773 Y194.5377 Z-2.1662 C11.1180 A-91.3391 F#10
N14960 G01 X-5.1046 Y194.5398 Z-2.2722 C11.2927 A-91.6810 F#10
N14970 G01 X-5.1221 Y194.5423 Z-2.3820 C11.4669 A-92.0244 F#10
N14980 G01 X-5.1291 Y194.5453 Z-2.4939 C11.6386 A-92.3659 F#10
N14990 G01 X-5.1252 Y194.5486 Z-2.6069 C11.8073 A-92.7045 F#10
N15000 G01 X-5.1100 Y194.5522 Z-2.7204 C11.9734 A-93.0407 F#10
N15010 G01 X-5.0834 Y194.5569 Z-2.8335 C12.1368 A-93.3743 F#10
N15020 G01 X-5.0439 Y194.5620 Z-2.9488 C12.3020 A-93.7151 F#10
N15030 G01 X-4.9916 Y194.5674 Z-3.0621 C12.4643 A-94.0535 F#10
N15040 G01 X-4.9224 Y194.5733 Z-3.1730 C12.6263 A-94.3953 F#10
N15050 G01 X-4.8311 Y194.5801 Z-3.2869 C12.7972 A-94.7610 F#10
N15060 G01 X-4.7341 Y194.5877 Z-3.3993 C12.9604 A-95.1160 F#10
N15070 G01 X-4.6222 Y194.5961 Z-3.5192 C13.1277 A-95.4870 F#10
N15080 G01 X-4.4488 Y194.6075 Z-3.6754 C13.3398 A-95.9720 F#10
N15090 G01 X-4.2077 Y194.6223 Z-3.8605 C13.5677 A-96.5217 F#10
N15100 G01 X-3.8622 Y194.6457 Z-4.1739 C13.8190 A-97.2053 F#10
N15110 G01 X-3.5187 Y194.6693 Z-4.5063 C13.9714 A-97.7438 F#10
N15120 G01 X-3.0882 Y194.6988 Z-4.9305 C14.0339 A-98.2325 F#10
N15130 G01 X-2.6456 Y194.7281 Z-5.3781 C13.9741 A-98.5713 F#10
N15140 G01 X-2.1644 Y194.7591 Z-5.8794 C13.8000 A-98.8205 F#10
N15150 G01 X-1.6921 Y194.7888 Z-6.3859 C13.5567 A-99.0223 F#10
N15160 G01 X-1.2099 Y194.8186 Z-6.9174 C13.2725 A-99.2642 F#10
N15170 G01 X-0.6704 Y194.8499 Z-7.5314 C12.8776 A-99.5404 F#10
N15180 G01 X-0.1160 Y194.8777 Z-8.1862 C12.3323 A-99.7812 F#10
N15190 G01 X0.2889 Y194.8953 Z-8.6814 C11.8323 A-99.9080 F#10
N15200 G01 X0.5977 Y194.9069 Z-9.0690 C11.3941 A-99.9898 F#10
N15210 G01 X0.8870 Y194.9157 Z-9.4404 C10.9378 A-100.0599 F#10
N15220 G01 X1.1767 Y194.9215 Z-9.8201 C10.4359 A-100.1223 F#10
N15230 G01 X1.5566 Y194.9249 Z-10.3301 C9.7110 A-100.1913 F#10
N15240 G01 X1.9109 Y194.9235 Z-10.8182 C8.9662 A-100.2403 F#10
N15250 G01 X2.1985 Y194.9178 Z-11.2233 C8.3151 A-100.2673 F#10
N15260 G01 X2.4786 Y194.9085 Z-11.6260 C7.6415 A-100.2818 F#10
N15270 G01 X2.7773 Y194.8945 Z-12.0654 C6.8778 A-100.2821 F#10
N15280 G01 X3.1413 Y194.8724 Z-12.6126 C5.8892 A-100.2601 F#10
N15290 G01 X3.5112 Y194.8453 Z-13.1860 C4.8136 A-100.2083 F#10
N15300 G01 X3.8192 Y194.8193 Z-13.6764 C3.8656 A-100.1402 F#10
N15310 G01 X4.0977 Y194.7923 Z-14.1293 C2.9701 A-100.0567 F#10
N15320 G01 X4.3655 Y194.7634 Z-14.5747 C2.0741 A-99.9547 F#10
N15330 G01 X4.6257 Y194.7326 Z-15.0157 C1.1728 A-99.8341 F#10
N15340 G01 X4.8850 Y194.6979 Z-15.4642 C0.2416 A-99.6901 F#10
N15350 G01 X5.1374 Y194.6604 Z-15.9113 C-0.6997 A-99.5252 F#10
N15360 G01 X5.3889 Y194.6194 Z-16.3674 C-1.6723 A-99.3352 F#10
N15370 G01 X5.6566 Y194.5712 Z-16.8653 C-2.7488 A-99.1004 F#10
N15380 G01 X5.9379 Y194.5157 Z-17.4014 C-3.9244 A-98.8153 F#10
N15390 G01 X6.1240 Y194.4760 Z-17.7652 C-4.7308 A-98.6027 F#10
N15400 G01 X6.2736 Y194.4425 Z-18.0638 C-5.4040 A-98.4156 F#10
N15410 G01 X6.4157 Y194.4086 Z-18.3591 C-6.0987 A-98.2183 F#10
N15420 G01 X6.5435 Y194.3729 Z-18.6691 C-6.8427 A-98.0021 F#10
N15430 G01 X6.6145 Y194.3469 Z-18.8941 C-7.3933 A-97.8405 F#10
N15440 G01 X6.6780 Y194.3274 Z-19.0598 C-7.8387 A-97.7116 F#10
N15450 G01 X6.7435 Y194.3124 Z-19.1794 C-8.1979 A-97.6087 F#10
N15460 G01 X6.8124 Y194.2994 Z-19.2765 C-8.5237 A-97.5154 F#10
N15470 G01 X6.8928 Y194.2854 Z-19.3794 C-8.8917 A-97.4098 F#10
N15480 G01 X6.9747 Y194.2733 Z-19.4643 C-9.2338 A-97.3114 F#10
N15490 G01 X7.0608 Y194.2624 Z-19.5378 C-9.5699 A-97.2141 F#10
N15500 G01 X7.1622 Y194.2513 Z-19.6084 C-9.9443 A-97.1049 F#10
N15510 G01 X7.2591 Y194.2423 Z-19.6623 C-10.2857 A-97.0044 F#10
N15520 G01 X7.3525 Y194.2347 Z-19.7039 C-10.6047 A-96.9096 F#10
N15530 G01 X7.4600 Y194.2271 Z-19.7405 C-10.9626 A-96.8019 F#10
N15540 G01 X7.5745 Y194.2203 Z-19.7676 C-11.3363 A-96.6878 F#10
N15550 G01 X7.6828 Y194.2151 Z-19.7828 C-11.6848 A-96.5797 F#10
N15560 G01 X7.7828 Y194.2113 Z-19.7883 C-12.0047 A-96.4789 F#10
N15570 G01 X7.8825 Y194.2085 Z-19.7855 C-12.3228 A-96.3769 F#10
N15580 G01 X7.9916 Y194.2065 Z-19.7729 C-12.6716 A-96.2629 F#10
N15590 G01 X8.0984 Y194.2058 Z-19.7506 C-13.0160 A-96.1479 F#10
N15600 G01 X8.1987 Y194.2062 Z-19.7204 C-13.3436 A-96.0359 F#10
N15610 G01 X8.3007 Y194.2076 Z-19.6795 C-13.6830 A-95.9169 F#10
N15620 G01 X8.3935 Y194.2101 Z-19.6325 C-13.9995 A-95.8030 F#10
N15630 G01 X8.5109 Y194.2150 Z-19.5575 C-14.4150 A-95.6484 F#10
N15640 G01 X8.5966 Y194.2201 Z-19.4901 C-14.7320 A-95.5261 F#10
N15650 G01 X8.6794 Y194.2265 Z-19.4119 C-15.0548 A-95.3970 F#10
N15660 G01 X8.7535 Y194.2340 Z-19.3280 C-15.3622 A-95.2691 F#10
N15670 G01 X8.8260 Y194.2434 Z-19.2287 C-15.6887 A-95.1273 F#10
N15680 G01 X8.8841 Y194.2527 Z-19.1322 C-15.9759 A-94.9966 F#10
N15690 G01 X8.9315 Y194.2622 Z-19.0344 C-16.2411 A-94.8696 F#10
N15700 G01 X8.9715 Y194.2726 Z-18.9312 C-16.4991 A-94.7395 F#10
N15710 G01 X9.0015 Y194.2836 Z-18.8271 C-16.7393 A-94.6115 F#10
N15720 G01 X9.0231 Y194.2954 Z-18.7188 C-16.9701 A-94.4803 F#10
N15730 G01 X9.0350 Y194.3078 Z-18.6085 C-17.1878 A-94.3478 F#10
N15740 G01 X9.0371 Y194.3203 Z-18.4929 C-17.3982 A-94.2093 F#10
N15750 G01 X9.0260 Y194.3337 Z-18.3750 C-17.5987 A-94.0667 F#10
N15760 G01 X8.9994 Y194.3481 Z-18.2554 C-17.7921 A-93.9188 F#10
N15770 G01 X8.9546 Y194.3636 Z-18.1323 C-17.9839 A-93.7602 F#10
N15780 G01 X8.8989 Y194.3800 Z-18.0060 C-18.1765 A-93.5842 F#10
N15790 G01 X8.8285 Y194.3991 Z-17.8511 C-18.3783 A-93.3827 F#10
N15800 G01 X8.7379 Y194.4210 Z-17.6757 C-18.5901 A-93.1372 F#10
N15810 G01 X8.6203 Y194.4463 Z-17.4776 C-18.7972 A-92.8489 F#10
N15820 G01 X8.4650 Y194.4755 Z-17.2446 C-19.0003 A-92.4966 F#10
N15830 G01 X8.2400 Y194.5163 Z-16.9067 C-19.2111 A-91.9829 F#10
N15840 G01 X8.1247 Y194.5389 Z-16.7005 C-19.2899 A-91.6828 F#10
N15850 G01 X8.0190 Y194.5602 Z-16.4927 C-19.3403 A-91.3867 F#10
N15860 G01 X7.8116 Y194.6017 Z-16.0592 C-19.3615 A-90.7793 F#10
N15870 G01 X7.5842 Y194.6428 Z-15.5850 C-19.2842 A-90.1252 F#10
N15880 G01 X7.3490 Y194.6798 Z-15.1050 C-19.1159 A-89.4754 F#10
N15890 G01 X7.0941 Y194.7139 Z-14.5972 C-18.8643 A-88.8084 F#10
N15900 G01 X6.8166 Y194.7449 Z-14.0581 C-18.5196 A-88.1241 F#10
N15910 G01 X6.5625 Y194.7683 Z-13.5755 C-18.1316 A-87.5184 F#10
N15920 G01 X6.3393 Y194.7860 Z-13.1607 C-17.7506 A-87.0004 F#10
N15930 G01 X6.1324 Y194.8002 Z-12.7838 C-17.3667 A-86.5348 F#10
N15940 G01 X5.9270 Y194.8113 Z-12.4159 C-16.9411 A-86.0951 F#10
N15950 G01 X5.7174 Y194.8201 Z-12.0464 C-16.4622 A-85.6722 F#10
N15960 G01 X5.4730 Y194.8265 Z-11.6229 C-15.8514 A-85.2139 F#10
N15970 G01 X5.1646 Y194.8279 Z-11.1004 C-15.0161 A-84.6744 F#10
